!!!!SEGMENT: pl-cz--iii-695--004_volckmer-augusti--litaniae-lauretanae-d-ag-dei.krn
!!!cenid: 17xx:1126
!!!COM: Volckmer, Augustin
!!!COM-rismID: pe30020656
!!!CDT: 1755-~1820
!!!CNT:
!!!OPR: Litaniae Lauretanae D
!!!OTL: Agnus Dei
!!!OMV: 004
!!!PDT:
!!!AGN: Sacred; Mass
!!!SMS-siglum: PL-CZ
!!!SMS-shelfmark: III-695
!!!SMS-shelfwork: 001-004 M
!!!SMS-variant:
!!!SMS-altvar:
!!!NIFC-rismSourceID: 300001387
!!!NIFC-rismChildID: 300001387
!!!NIFC-islandoraID: pl-cz:40519
!!!URL-pdf-islandora: https://repozytorium.nifc.pl/islandora/object/pl-cz%3A40519/datastream/PDF/view
!!!URL-scan:
!!!ONB-nifc: UWAGA: części Litanii: Kyrie eleison, Virgo prudentissima, Regina angelorum, Agnus Dei, Miserere nobis
!!!AIN: 1 alto 1 bass 2 clars 1 clrno 1 cor 2 oboe 1 organ 1 soprn 1 tenor 1 timpa 1 viola 2 violn
!!!key: D
!!!filter-modern: sic -sq | shed -e "s/TX(.*):t=P:/tx$1:t=P:/LG" | shed -k -e "s/:TUP:/:tup:/L" | shed -e "s/^(\d+[\/\\]right)/$1yy/I;s/^(\d+[\/\\]left)/$1yy/I" | shed -e "s/:rj/:RJ/L" | shed -k -e "s/([^a-gA-Gn#X-])[<>]/$1/g" | shed -e "s/LO:DY:(a|b|rj)/LO:dy:$1/L" | shed -e "s/-//B" | modori -m | tie -s | autostem -r | humtr -p
!!!OMD:
!!!OMD-mod: Adagio
**kern	**fba	**kern	**dynam	**kern	**dynam	**kern	**dynam	**kern	**text	**dynam	**kern	**text	**dynam	**kern	**text	**dynam	**kern	**text	**dynam	**kern	**dynam	**kern	**dynam	**kern	**dynam	**kern	**dynam	**kern	**dynam	**kern	**dynam	**kern	**dynam
*part15	*part15	*part14	*part14	*part13	*part13	*part12	*part12	*part11	*part11	*part11	*part10	*part10	*part10	*part9	*part9	*part9	*part8	*part8	*part8	*part7	*part7	*part6	*part6	*part5	*part5	*part4	*part4	*part3	*part3	*part2	*part2	*part1	*part1
*staff15	*	*staff14	*	*staff13	*	*staff12	*	*staff11	*staff11	*	*staff10	*staff10	*	*staff9	*staff9	*	*staff8	*staff8	*	*staff7	*	*staff6	*	*staff5	*	*staff4	*	*staff3	*	*staff2	*	*staff1	*
*I"Organo	*	*I"Viola.	*	*I"Violino Secundo.	*	*I"Violino Primo	*	*I"Basſo.	*	*	*I"Tenore.	*	*	*I"Alto.	*	*	*I"Canto	*	*	*I"Timpano.	*	*I"Clarino ê Corno Secundo	*	*I"Clarino ê Corno Primo	*	*I"Clarinetto Secundo in A.	*	*I"Clarinetto Primo in A.	*	*I"Oboe Secundo_	*	*I"Oboe Primo_	*
*I'org	*	*I'vla	*	*I'vl II	*	*I'vl I	*	*I'B	*	*	*I'T	*	*	*I'A	*	*	*I'S	*	*	*I'timp	*	*I'clno e cor 2	*	*I'clno e cor 1	*	*I'cl 2	*	*I'cl 1	*	*I'ob 2	*	*I'ob 1	*
*Iorgan	*	*Iviola	*	*Ivioln	*	*Ivioln	*	*Ibass	*	*	*Itenor	*	*	*Ialto	*	*	*Isoprn	*	*	*Itimpa	*	*Iclrno&Icor	*Iclrno&Icor	*Iclars	*	*Iclars	*	*Ioboe	*	*Ioboe	*	*	*
*ICklav	*	*ICstr	*	*ICstr	*	*ICstr	*	*ICvox	*	*	*ICvox	*	*	*ICvox	*	*	*ICvox	*	*	*ICidio	*	*ICbras	*	*ICbras	*	*ICww	*	*ICww	*	*ICww	*	*ICww	*
*IGcont	*	*	*	*	*	*	*	*IGcoro	*	*	*IGcoro	*	*	*IGcoro	*	*	*IGcoro	*	*	*	*	*	*	*	*	*	*	*	*	*	*	*	*
*	*	*mI"Viola	*	*mI"Violino II	*	*mI"Violino I	*	*mI"Basso	*	*	*mI"Tenore	*	*	*mI"Alto	*	*	*mI"Soprano	*	*	*mI"Timpani in D. A. 	*	*mI"Clarino e Corno II in D	*	*mI"Clarino e Corno I in D	*	*mI"Clarinetto II in A	*	*mI"Clarinetto I in A	*	*mI"Oboe II	*	*mI"Oboe I	*
*clefF4	*	*clefC3	*	*clefG2	*	*clefG2	*	*clefF4	*	*	*clefC4	*	*	*clefC3	*	*	*clefC1	*	*	*clefF4	*	*clefG2	*	*clefG2	*	*clefG2	*	*clefG2	*	*clefG2	*	*clefG2	*
*	*	*	*	*	*	*	*	*	*	*	*mclefGv2	*	*	*mclefG2	*	*	*mclefG2	*	*	*	*	*	*	*	*	*	*	*	*	*	*	*	*
*	*	*	*	*	*	*	*	*	*	*	*	*	*	*	*	*	*	*	*	*	*	*ITrd6c10	*	*ITrd6c10	*	*ITrd2c3	*	*ITrd2c3	*	*	*	*	*
*k[f#]	*	*k[f#]	*	*k[f#]	*	*k[f#]	*	*k[f#]	*	*	*k[f#c#]	*	*	*k[f#]	*	*	*k[f#c#]	*	*	*k[]	*	*k[f#c#]	*	*k[f#c#]	*	*k[f#c#]	*	*k[f#c#]	*	*k[f#c#]	*	*k[f#c#]	*
*	*	*	*	*	*	*	*	*	*	*	*mk[f#]	*	*	*	*	*	*mk[f#]	*	*	*	*	*	*	*	*	*mk[f#]	*	*mk[f#]	*	*mk[f#]	*	*mk[f#]	*
*	*	*	*	*	*	*	*	*	*	*	*D:	*	*	*	*	*	*D:	*	*	*	*	*	*	*	*	*D:	*	*D:	*	*D:	*	*D:	*
*M3/4	*	*M3/4	*	*M3/4	*	*M3/4	*	*M3/4	*	*	*M3/4	*	*	*M3/4	*	*	*M3/4	*	*	*M3/4	*	*M3/4	*	*M3/4	*	*M3/4	*	*M3/4	*	*M3/4	*	*M3/4	*
=1	=1	=1	=1	=1	=1	=1	=1	=1	=1	=1	=1	=1	=1	=1	=1	=1	=1	=1	=1	=1	=1	=1	=1	=1	=1	=1	=1	=1	=1	=1	=1	=1	=1
*all\right	*	*all\right	*	*all\right	*	*all\right	*	*	*	*	*	*	*	*all\right	*	*	*	*	*	*all\right	*	*all\right	*	*all\right	*	*	*	*all\right	*	*	*	*all\right	*
!LO:TX:b:i:t=dolce:mod=	!	!	!	!LO:TX:t=P:problem: all\right	!	!LO:TX:t=P:problem: all\right	!	!	!	!	!	!	!	!	!	!	!	!	!	!LO:TX:t=P:problem: all\right	!	!	!	!LO:TX:a:B:t=Adagio:mod=	!	!	!	!	!	!LO:TX:t=P:problem: all\right or middle	!	!LO:TX:t=P:problem: all\right	!
!	!	!	!	!LO:MO:mod=!LO&colon;TX&colon;i&colon;a&colon;t=dolce	!	!LO:MO:mod=!LO&colon;TX&colon;i&colon;a&colon;t=dolce	!	!	!	!	!	!	!	!	!	!	!	!	!	!LO:TX:t=P:problem: all\right	!	!LO:TX:t=P:problem: all\right	!	!	!	!	!	!	!	!	!	!	!
!LO:TX:t=P:problem: all\right	!	!LO:TX:t=P:problem: all\right	!	!LO:TX:b:i:t=dolce	!	!LO:TX:b:i:t=dolce	!	!LO:TX:t=P:problem: all\right or middle	!	!	!LO:TX:t=P:problem: all\right or middle	!	!	!LO:TX:t=P:problem: all\right	!	!	!LO:TX:t=P:problem: all\right or left	!	!	!LO:TX:a:B:t=Adagio:mod=	!	!LO:TX:a:B:t=Adagio:mod=	!	!LO:TX:a:t=23:mod=	!	!	!	!LO:TX:t=P:problem: all\right	!	!LO:TX:a:t=2:mod=	!	!LO:TX:a:t=2:mod=	!
!LO:TX:a:B:t=Adagio:mod=	!	!LO:TX:a:B:t=Adagio:mod=	!	!LO:TX:a:t=Agnus:mod=	!	!LO:TX:a:B:t=Adagio:mod=	!	!	!	!	!LO:TX:a:B:t=Adagio:mod=	!	!	!LO:TX:a:t=14:mod=	!	!	!LO:TX:a:B:t=Adagio:mod=	!	!	!LO:TX:a:t=23:mod=	!	!LO:TX:a:t=23:mod=	!	!LO:TX:a:t=in D:mod=	!	!LO:TX:a:t=Agnus:mod=	!	!LO:TX:a:t=Agnus:mod=	!	!LO:TX:a:B:t=Adagio:mod=	!	!LO:TX:a:B:t=Adagio:mod=	!
!LO:TX:a:t=Agnus:mod=	!	!LO:TX:a:t=Agnus:mod=	!	!LO:TX:a:B:t=Adagio:mod=	!	!LO:TX:a:t=Agnus:mod=	!	!LO:TX:a:t=6:mod=	!	!	!LO:TX:a:t=23:mod=	!	!	!LO:TX:a:B:t=Adagio:mod=	!	!	!LO:TX:a:t=23:mod=	!	!	!LO:TX:a:t=Agnus:mod=	!	!LO:TX:a:t=Agnus:mod=	!	!LO:TX:a:t=Agnus:mod=	!	!LO:TX:a:t=2:mod=	!	!LO:TX:a:t=2:mod=	!	!LO:TX:a:t=Agnus:mod=	!	!LO:TX:a:t=Agnus:mod=	!
4GG/	.	4G/	.	4G/ 4d 4b	.	4dd\	.	0.r	.	.	0.r	.	.	0.r	.	.	0.r	.	.	0.r	.	0.r	.	0.r	.	1.r	.	1.r	.	1.r	.	1.r	.
4G'\	.	4g\	.	(16b\LL	.	(16dd\LL	.	.	.	.	.	.	.	.	.	.	.	.	.	.	.	.	.	.	.	.	.	.	.	.	.	.	.
.	.	.	.	16a\	.	16cc\	.	.	.	.	.	.	.	.	.	.	.	.	.	.	.	.	.	.	.	.	.	.	.	.	.	.	.
.	.	.	.	16g\	.	16b\	.	.	.	.	.	.	.	.	.	.	.	.	.	.	.	.	.	.	.	.	.	.	.	.	.	.	.
.	.	.	.	16a\JJ)	.	16cc\JJ)	.	.	.	.	.	.	.	.	.	.	.	.	.	.	.	.	.	.	.	.	.	.	.	.	.	.	.
4r	.	4r	.	8g|/L	.	8b|\L	.	.	.	.	.	.	.	.	.	.	.	.	.	.	.	.	.	.	.	.	.	.	.	.	.	.	.
.	.	.	.	8g|/J	.	8b|\J	.	.	.	.	.	.	.	.	.	.	.	.	.	.	.	.	.	.	.	.	.	.	.	.	.	.	.
=2	=2	=2	=2	=2	=2	=2	=2	=2	=2	=2	=2	=2	=2	=2	=2	=2	=2	=2	=2	=2	=2	=2	=2	=2	=2	=2	=2	=2	=2	=2	=2	=2	=2
4C\	8	4g\	.	4ee\	.	4gg\	.	.	.	.	.	.	.	.	.	.	.	.	.	.	.	.	.	.	.	.	.	.	.	.	.	.	.
4c\	.	(16g\LL	.	(16ee\LL	.	(16gg\LL	.	.	.	.	.	.	.	.	.	.	.	.	.	.	.	.	.	.	.	.	.	.	.	.	.	.	.
.	.	16fn\	.	16dd\	.	16ffn\	.	.	.	.	.	.	.	.	.	.	.	.	.	.	.	.	.	.	.	.	.	.	.	.	.	.	.
.	.	16e\	.	16cc\	.	16ee\	.	.	.	.	.	.	.	.	.	.	.	.	.	.	.	.	.	.	.	.	.	.	.	.	.	.	.
.	.	16f\JJ)	.	16dd\JJ)	.	16ff\JJ)	.	.	.	.	.	.	.	.	.	.	.	.	.	.	.	.	.	.	.	.	.	.	.	.	.	.	.
4r	.	8e\L	.	8cc|\L	.	8ee|\L	.	.	.	.	.	.	.	.	.	.	.	.	.	.	.	.	.	.	.	.	.	.	.	.	.	.	.
.	.	8e\J	.	8cc|\J	.	8ee|\J	.	.	.	.	.	.	.	.	.	.	.	.	.	.	.	.	.	.	.	.	.	.	.	.	.	.	.
=3	=3	=3	=3	=3	=3	=3	=3	=3	=3	=3	=3	=3	=3	=3	=3	=3	=3	=3	=3	=3	=3	=3	=3	=3	=3	=3	=3	=3	=3	=3	=3	=3	=3
!	!	!	!	!	!	!	!	!	!	!	!	!	!	!	!	!	!	!	!	!	!	!	!	!	!	!	!LO:MO:null:mod=!LO&colon;DY&colon;ed=brack	!	!	!	!LO:MO:null:mod=!LO&colon;DY&colon;ed=brack	!	!
!	!	!	!	!	!	!	!	!	!	!	!	!	!	!	!	!	!	!	!	!	!	!	!	!	!	!	!	!	!	!	!	!	!
!	!	!	!	!	!	!	!	!	!	!	!	!	!	!	!	!	!	!	!	!	!	!	!	!	!	!LO:TX:a:B:t=Adagio:mod=	!LO:MO:null:mod=p	!LO:TX:a:B:t=Adagio:mod=	!LO:DY:b:t=pia	!	!LO:MO:null:mod=p	!LO:SIC:s=4cc	!
4D\	.	4d\	.	4a/	.	4cc\	.	.	.	.	.	.	.	.	.	.	.	.	.	.	.	.	.	.	.	4a\	.	4ccX\	p	4a/	.	4ccn\	p
4D\	.	4d\	.	(16a/LL	.	(16cc\LL	.	.	.	.	.	.	.	.	.	.	.	.	.	.	.	.	.	.	.	(16a\LL	.	(16cc\LL	.	(16a/LL	.	(16cc\LL	.
.	.	.	.	16g/	.	16b\	.	.	.	.	.	.	.	.	.	.	.	.	.	.	.	.	.	.	.	16g\	.	16b\	.	16g/	.	16b\	.
.	.	.	.	16f#/	.	16a\	.	.	.	.	.	.	.	.	.	.	.	.	.	.	.	.	.	.	.	16f#\	.	16a\	.	16f#/	.	16a\)	.
.	.	.	.	16g/JJ)	.	16b\JJ)	.	.	.	.	.	.	.	.	.	.	.	.	.	.	.	.	.	.	.	16g\JJ)	.	16b\JJ)	.	16g/JJ)	.	16b\JJ	.
8D\L	.	8d\L	.	8f#/L	.	8a\L	.	.	.	.	.	.	.	.	.	.	.	.	.	.	.	.	.	.	.	8f#\L	.	8a\L	.	8f#/L	.	8a\L	.
!	!	!	!	!	!	!	!	!	!	!	!	!	!	!	!	!	!	!	!	!	!	!	!	!	!	!	!	!	!	!LO:SIC:s=8ccJ	!	!	!
8F#\J	.	8f#X\J	.	8cc\J	.	8ee\J	.	.	.	.	.	.	.	.	.	.	.	.	.	.	.	.	.	.	.	8ccX\J	.	8ee\J	.	8ccn\J	.	8ee\J	.
=4	=4	=4	=4	=4	=4	=4	=4	=4	=4	=4	=4	=4	=4	=4	=4	=4	=4	=4	=4	=4	=4	=4	=4	=4	=4	=4	=4	=4	=4	=4	=4	=4	=4
!	!	!	!	!	!	!	!	!	!	!	!	!	!	!	!	!	!	!	!	!	!	!	!	!	!	!	!	!	!	!LO:SIC:v:s=(8cc	!	!	!
4G\	.	(4g\	.	(8cc\	.	(8ee\	.	.	.	.	.	.	.	.	.	.	.	.	.	.	.	.	.	.	.	(8ccX\	.	(8ee\	.	8cc#\	.	(8ee\	.
!	!	!	!	!	!	!	!	!	!	!	!	!	!	!	!	!	!	!	!	!	!	!	!	!	!	!	!	!	!	!LO:SIC:s=4b	!	!	!
.	.	.	.	4b\	.	4dd\	.	.	.	.	.	.	.	.	.	.	.	.	.	.	.	.	.	.	.	4b\	.	4dd\	.	(4b\	.	4dd\	.
4GG/	.	4d\)	.	.	.	.	.	.	.	.	.	.	.	.	.	.	.	.	.	.	.	.	.	.	.	.	.	.	.	.	.	.	.
!	!	!	!	!	!	!	!	!	!	!	!	!	!	!	!	!	!	!	!	!	!	!	!	!	!	!	!	!	!	!LO:SIC:s=8aL)	!	!LO:SIC:s=8ccL)	!
.	.	.	.	8a\L)	.	8cc\L)	.	.	.	.	.	.	.	.	.	.	.	.	.	.	.	.	.	.	.	8a\L)	.	8ccX\L)	.	8a\)	.	8ccn\L)	.
!	!	!	!	!	!	!	!	!	!	!	!	!	!	!	!	!	!	!	!	!	!	!	!	!	!	!	!	!	!	!LO:SIC:s=8g|	!	!LO:SIC:s=8b|	!
4r	.	4e\	.	8g|\	.	8b|\	.	.	.	.	.	.	.	.	.	.	.	.	.	.	.	.	.	.	.	8g|\	.	8b|\	.	8g'\L	.	8b'\	.
!	!	!	!	!	!	!LO:SIC:s=8gg|J	!	!	!	!	!	!	!	!	!	!	!	!	!	!	!	!	!	!	!	!	!	!	!	!LO:SIC:s=8b|J	!	!LO:SIC:s=8gg|J	!
.	.	.	.	8b|\J	.	8gg'\J	.	.	.	.	.	.	.	.	.	.	.	.	.	.	.	.	.	.	.	8b|\J	.	8gg|\J	.	8b'\J	.	8gg'\J	.
=5	=5	=5	=5	=5	=5	=5	=5	=5	=5	=5	=5	=5	=5	=5	=5	=5	=5	=5	=5	=5	=5	=5	=5	=5	=5	=5	=5	=5	=5	=5	=5	=5	=5
!	!	!	!	!	!LO:DY:b:t=forto	!	!	!	!	!	!	!	!	!	!	!	!	!	!	!	!	!	!	!	!	!	!	!	!LO:DY:b:t=forto	!	!	!	!
!	!	!	!	!	!LO:MO:null:mod=.	!	!	!	!	!	!	!	!	!	!	!	!	!	!	!	!	!	!	!	!	!	!	!	!LO:MO:null:mod=.	!	!	!	!
4C\	6	4c\	.	8r	f	8r	.	1.r	.	.	0.r	.	.	0.r	.	.	0.r	.	.	0.r	.	0.r	.	0.r	.	8r	.	8r	f	8r	.	8r	.
!	!	!	!	!	!	!	!	!	!	!	!	!	!	!	!	!	!	!	!	!	!	!	!	!	!	!	!LO:MO:null:mod=!LO&colon;DY&colon;ed=brack	!	!	!	!LO:MO:null:mod=!LO&colon;DY&colon;ed=brack	!	!
!	!	!	!	!	!	!	!	!	!	!	!	!	!	!	!	!	!	!	!	!	!	!	!	!	!	!	!	!	!	!	!	!	!
!	!	!	!	!LO:SIC:s=(8ccL	!LO:MO:null:mod=f	!	!LO:DY:b:t=forto	!	!	!	!	!	!	!	!	!	!	!	!	!	!	!	!	!	!	!	!LO:MO:null:mod=f	!	!LO:MO:null:mod=f	!LO:SIC:s=(8ccL	!LO:MO:null:mod=f	!	!LO:DY:b:t=for
.	.	.	.	8cc\L	.	(8ee\L	f	.	.	.	.	.	.	.	.	.	.	.	.	.	.	.	.	.	.	(8ccX\L	.	(8ee\L	.	(8ccn\L	.	(8ee\L	f
!	!	!	!	!LO:SIC:s=8b)	!	!	!	!	!	!	!	!	!	!	!	!	!	!	!	!	!	!	!	!	!	!	!	!	!	!	!	!	!
4D\	6 4	4d\	.	8b\	.	8dd\)	.	.	.	.	.	.	.	.	.	.	.	.	.	.	.	.	.	.	.	8b\)	.	8dd\	.	8b\)	.	8dd\	.
!	!	!	!	!LO:SIC:s=8g|	!	!	!	!	!	!	!	!	!	!	!	!	!	!	!	!	!	!	!	!	!	!	!	!	!	!LO:SIC:s=8b|	!	!	!
.	.	.	.	8g\J	.	8b|\	.	.	.	.	.	.	.	.	.	.	.	.	.	.	.	.	.	.	.	8b|\	.	8gg\)	.	8b'\	.	8gg\)	.
!	!	!	!	!LO:SIC:s=8e|	!	!	!	!	!	!	!	!	!	!	!	!	!	!	!	!	!	!	!	!	!	!	!	!	!	!	!	!LO:SIC:s=8aa|	!
4DD/	5 3	4d\	.	8e/L	.	8cc|\	.	.	.	.	.	.	.	.	.	.	.	.	.	.	.	.	.	.	.	(8cc\	.	8aa|\	.	(8cc\	.	8aa'\	.
!	!	!	!	!LO:SIC:s=8c|J	!	!	!	!	!	!	!	!	!	!	!	!	!	!	!	!	!	!	!	!	!	!	!	!	!	!	!	!LO:SIC:s=8ff#|J	!
.	.	.	.	8c/J	.	8a\J	.	.	.	.	.	.	.	.	.	.	.	.	.	.	.	.	.	.	.	8a\J)	.	8ff#|\J	.	8a\J)	.	8ff#'\J	.
=6	=6	=6	=6	=6	=6	=6	=6	=6	=6	=6	=6	=6	=6	=6	=6	=6	=6	=6	=6	=6	=6	=6	=6	=6	=6	=6	=6	=6	=6	=6	=6	=6	=6
*	*	*	*	*	*	*^	*	*	*	*	*	*	*	*	*	*	*	*	*	*	*	*	*	*	*	*	*	*	*	*	*	*	*
*	*	*2\right	*	*	*	*2\right	*	*	*	*	*	*	*	*	*	*	*	*	*	*	*	*	*	*	*	*	*2\right	*	*2\right	*	*2\right	*	*2\right	*
4r	.	2d\	.	2c/	.	(2a/	2f#\	.	.	.	.	.	.	.	.	.	.	.	.	.	.	.	.	.	.	.	(2a\	.	(2ff#\	.	(2a\	.	2ff#\	.
4DD/	.	.	.	.	.	.	.	.	.	.	.	.	.	.	.	.	.	.	.	.	.	.	.	.	.	.	.	.	.	.	.	.	.	.
.	.	.	.	.	.	16qqg/LL	.	.	.	.	.	.	.	.	.	.	.	.	.	.	.	.	.	.	.	.	.	.	.	.	.	.	.	.
.	.	.	.	.	.	16qqa/JJ	.	.	.	.	.	.	.	.	.	.	.	.	.	.	.	.	.	.	.	.	.	.	.	.	.	.	.	.
!	!	!	!	!	!	!	!	!	!	!	!	!	!	!	!	!	!	!	!	!	!	!	!	!	!	!	!LO:SIC:s=4b)	!	!	!	!LO:SIC:s=4b)	!	!	!
4GG/	.	4d\	.	4B/	.	4g/)	4ryy	.	.	.	.	.	.	.	.	.	.	.	.	.	.	.	.	.	.	.	4b|\)	.	4gg\)	.	4b'\)	.	4gg\	.
*	*	*	*	*	*	*v	*v	*	*	*	*	*	*	*	*	*	*	*	*	*	*	*	*	*	*	*	*	*	*	*	*	*	*	*
=7	=7	=7	=7	=7	=7	=7	=7	=7	=7	=7	=7	=7	=7	=7	=7	=7	=7	=7	=7	=7	=7	=7	=7	=7	=7	=7	=7	=7	=7	=7	=7	=7	=7
!	!	!	!	!	!	!	!	!LO:MO:mod=!LO&colon;TX&colon;i&colon;a&colon;t=dolce	!	!	!	!	!	!	!	!	!	!	!	!	!	!	!	!	!	!	!	!	!	!	!	!	!
!	!	!	!	!	!	!	!	!LO:TX:b:i:t=dolce	!	!	!	!	!	!	!	!	!	!	!	!	!	!	!	!	!	!	!	!	!	!	!	!	!
!	!	!	!LO:DY:b:t=pia	!	!LO:DY:a:t=pia	!	!LO:DY:b:t=piano	!LO:TX:a:B:t=Adagio:mod=	!	!	!	!	!	!	!	!	!	!	!	!	!	!	!	!	!	!LO:TX:a:t=17.:mod=	!	!LO:TX:a:t=17:mod=	!	!LO:TX:a:t=17.:mod=	!	!LO:TX:a:t=17:mod=	!
4GG/	.	4g\	p	2B/	p	4dd\	p	4d\	A-	.	.	.	.	.	.	.	.	.	.	.	.	.	.	.	.	0.r	.	0.r	.	0.r	.	0.r	.
4G\	.	4G/	.	.	.	4g/	.	4G\	-gnus	.	.	.	.	.	.	.	.	.	.	.	.	.	.	.	.	.	.	.	.	.	.	.	.
4r	.	4c\	.	(16e/LL	.	(16cc\LL	.	16c\LL	A-	.	.	.	.	.	.	.	.	.	.	.	.	.	.	.	.	.	.	.	.	.	.	.	.
.	.	.	.	16d/	.	16b\	.	16B\JJ	.	.	.	.	.	.	.	.	.	.	.	.	.	.	.	.	.	.	.	.	.	.	.	.	.
!	!	!	!	!LO:TX:a:t=vox:mod=	!	!LO:TX:b:t=vox:mod=	!	!	!	!	!	!	!	!	!	!	!	!	!	!	!	!	!	!	!	!	!	!	!	!	!	!	!
.	.	.	.	16c/	.	16a\	.	16A\LL	-gnus	.	.	.	.	.	.	.	.	.	.	.	.	.	.	.	.	.	.	.	.	.	.	.	.
.	.	.	.	16B/JJ)	.	16g\JJ)	.	16G\JJ	.	.	.	.	.	.	.	.	.	.	.	.	.	.	.	.	.	.	.	.	.	.	.	.	.
!LO:LB:g=original	!	!	!	!LO:LB:g=original	!	!	!	!	!	!	!	!	!	!	!	!	!	!	!	!	!	!	!	!	!	!	!	!	!	!	!	!	!
=8	=8	=8	=8	=8	=8	=8	=8	=8	=8	=8	=8	=8	=8	=8	=8	=8	=8	=8	=8	=8	=8	=8	=8	=8	=8	=8	=8	=8	=8	=8	=8	=8	=8
4D\	.	4d\	.	(4A/	.	(4f#/	.	4F#\	De-	.	.	.	.	.	.	.	.	.	.	.	.	.	.	.	.	.	.	.	.	.	.	.	.
!LO:SIC:v:s=4G	!	!	!	!	!	!	!	!	!	!	!	!	!	!	!	!	!	!	!	!	!	!	!	!	!	!	!	!	!	!	!	!	!
4DD/	.	4d\	.	4B/)	.	4g/)	.	4G\	-i	.	.	.	.	.	.	.	.	.	.	.	.	.	.	.	.	.	.	.	.	.	.	.	.
4r	.	4r	.	4r	.	8r	.	8r	.	.	.	.	.	.	.	.	.	.	.	.	.	.	.	.	.	.	.	.	.	.	.	.	.
.	.	.	.	.	.	(8dd#X\	.	8d#X\	qui	.	.	.	.	.	.	.	.	.	.	.	.	.	.	.	.	.	.	.	.	.	.	.	.
!	!	!	!	!	!	!LO:LB:g=original	!	!	!	!	!	!	!	!	!	!	!	!	!	!	!	!	!	!	!	!	!	!	!	!	!	!	!
=9	=9	=9	=9	=9	=9	=9	=9	=9	=9	=9	=9	=9	=9	=9	=9	=9	=9	=9	=9	=9	=9	=9	=9	=9	=9	=9	=9	=9	=9	=9	=9	=9	=9
!LO:TX:a:t=1	!	!	!	!	!	!	!	!	!	!	!	!	!	!	!	!	!	!	!	!	!	!	!	!	!	!	!	!	!	!	!	!	!
2.r	.	8c/L	.	(8c/L	.	8ee\L)	.	8e\L	tol-	.	0.r	.	.	0.r	.	.	0.r	.	.	0.r	.	0.r	.	0.r	.	.	.	.	.	.	.	.	.
.	.	8B/J	.	8fn/J)	.	8g#X|/J	.	8G#X\J	.	.	.	.	.	.	.	.	.	.	.	.	.	.	.	.	.	.	.	.	.	.	.	.	.
.	.	4c\	.	4e/	.	8a|\L	.	8A\	-lis	.	.	.	.	.	.	.	.	.	.	.	.	.	.	.	.	.	.	.	.	.	.	.	.
.	.	.	.	.	.	8b|\J	.	8B\	pec-	.	.	.	.	.	.	.	.	.	.	.	.	.	.	.	.	.	.	.	.	.	.	.	.
.	.	.	.	16qqf#X/	.	.	.	.	.	.	.	.	.	.	.	.	.	.	.	.	.	.	.	.	.	.	.	.	.	.	.	.	.
.	.	8A/L	.	8e/L	.	(16ddn\LL	.	16dn\LL	-ca-	.	.	.	.	.	.	.	.	.	.	.	.	.	.	.	.	.	.	.	.	.	.	.	.
.	.	.	.	.	.	16cc\	.	16c\JJ	.	.	.	.	.	.	.	.	.	.	.	.	.	.	.	.	.	.	.	.	.	.	.	.	.
.	.	8c/J	.	16d/L	.	16b\	.	16B\LL	-ta	.	.	.	.	.	.	.	.	.	.	.	.	.	.	.	.	.	.	.	.	.	.	.	.
.	.	.	.	16c/JJ	.	16a\JJ)	.	16A\JJ	.	.	.	.	.	.	.	.	.	.	.	.	.	.	.	.	.	.	.	.	.	.	.	.	.
=10	=10	=10	=10	=10	=10	=10	=10	=10	=10	=10	=10	=10	=10	=10	=10	=10	=10	=10	=10	=10	=10	=10	=10	=10	=10	=10	=10	=10	=10	=10	=10	=10	=10
4D\	.	4d\	.	(4B/	.	(4gn/	.	4Gn\	mun-	.	.	.	.	.	.	.	.	.	.	.	.	.	.	.	.	.	.	.	.	.	.	.	.
4DD/	.	4d\	.	4A/)	.	4f#/)	.	4F#\	-di	.	.	.	.	.	.	.	.	.	.	.	.	.	.	.	.	.	.	.	.	.	.	.	.
4r	.	4r	.	8d|/L	.	4r	.	4r	.	.	.	.	.	.	.	.	.	.	.	.	.	.	.	.	.	.	.	.	.	.	.	.	.
.	.	.	.	8d|/J	.	.	.	.	.	.	.	.	.	.	.	.	.	.	.	.	.	.	.	.	.	.	.	.	.	.	.	.	.
=11	=11	=11	=11	=11	=11	=11	=11	=11	=11	=11	=11	=11	=11	=11	=11	=11	=11	=11	=11	=11	=11	=11	=11	=11	=11	=11	=11	=11	=11	=11	=11	=11	=11
!	!	!	!	!	!	!	!	!	!	!	!	!	!	!	!	!	!	!	!	!	!	!	!	!	!	!	!	!	!	!	!	!	!
8C\	.	4a\	.	8r	.	8r	.	(4c\	par-	.	.	.	.	.	.	.	.	.	.	.	.	.	.	.	.	0.r	.	0.r	.	0.r	.	0.r	.
8r	.	.	.	8a|/	.	8cc|\	.	.	.	.	.	.	.	.	.	.	.	.	.	.	.	.	.	.	.	.	.	.	.	.	.	.	.
8D\	.	4g\	.	8r	.	8r	.	4B\)	.	.	.	.	.	.	.	.	.	.	.	.	.	.	.	.	.	.	.	.	.	.	.	.	.
8r	.	.	.	8g|/	.	8b|\	.	.	.	.	.	.	.	.	.	.	.	.	.	.	.	.	.	.	.	.	.	.	.	.	.	.	.
8DD/	.	4f#\	.	8r	.	8r	.	4A\	-ce	.	.	.	.	.	.	.	.	.	.	.	.	.	.	.	.	.	.	.	.	.	.	.	.
8r	.	.	.	8f#|/	.	8a|/	.	.	.	.	.	.	.	.	.	.	.	.	.	.	.	.	.	.	.	.	.	.	.	.	.	.	.
!	!	!LO:LB:g=original	!	!	!	!	!	!	!	!	!	!	!	!	!	!	!	!	!	!	!	!	!	!	!	!	!	!	!	!	!	!	!
=12	=12	=12	=12	=12	=12	=12	=12	=12	=12	=12	=12	=12	=12	=12	=12	=12	=12	=12	=12	=12	=12	=12	=12	=12	=12	=12	=12	=12	=12	=12	=12	=12	=12
4GG\ 4G	.	4g\	.	4b\	.	4dd\	.	4d\	par-	.	.	.	.	.	.	.	.	.	.	.	.	.	.	.	.	.	.	.	.	.	.	.	.
!	!	!	!	!	!	!	!	!LO:SIC:s=16c#X\LL	!	!	!	!	!	!	!	!	!	!	!	!	!	!	!	!	!	!	!	!	!	!	!	!	!
4r	.	4r	.	4r	.	(16cc#X\LL	.	(16c#X\LL	.	.	.	.	.	.	.	.	.	.	.	.	.	.	.	.	.	.	.	.	.	.	.	.	.
.	.	.	.	.	.	16dd\	.	16d\	.	.	.	.	.	.	.	.	.	.	.	.	.	.	.	.	.	.	.	.	.	.	.	.	.
.	.	.	.	.	.	16ee\	.	16e\	.	.	.	.	.	.	.	.	.	.	.	.	.	.	.	.	.	.	.	.	.	.	.	.	.
!	!	!	!	!	!	!	!	!LO:SIC:s=16d\JJ	!	!	!	!	!	!	!	!	!	!	!	!	!	!	!	!	!	!	!	!	!	!	!	!	!
.	.	.	.	.	.	16dd\JJ	.	16d\JJ)	.	.	.	.	.	.	.	.	.	.	.	.	.	.	.	.	.	.	.	.	.	.	.	.	.
!	!	!	!	!	!	!	!	!LO:LB:g=original	!LO:MO:null:mod=-ce	!	!	!	!	!	!	!	!	!	!	!	!	!	!	!	!	!	!	!	!	!	!	!	!
4r	.	4r	.	4r	.	16ccn\LL	.	16cn\LL	.	.	.	.	.	.	.	.	.	.	.	.	.	.	.	.	.	.	.	.	.	.	.	.	.
.	.	.	.	.	.	16b\	.	16B\	.	.	.	.	.	.	.	.	.	.	.	.	.	.	.	.	.	.	.	.	.	.	.	.	.
!	!	!	!	!	!	!LO:SIC:s=16a	!	!	!LO:MO:null:mod=.	!	!	!	!	!	!	!	!	!	!	!	!	!	!	!	!	!	!	!	!	!	!	!	!
.	.	.	.	.	.	16a\)	.	16A\	-ce	.	.	.	.	.	.	.	.	.	.	.	.	.	.	.	.	.	.	.	.	.	.	.	.
!	!	!	!	!	!	!LO:SIC:s=16gJJ)	!	!	!	!	!	!	!	!	!	!	!	!	!	!	!	!	!	!	!	!	!	!	!	!	!	!	!
.	.	.	.	.	.	16g\JJ	.	16G\JJ	.	.	.	.	.	.	.	.	.	.	.	.	.	.	.	.	.	.	.	.	.	.	.	.	.
=13	=13	=13	=13	=13	=13	=13	=13	=13	=13	=13	=13	=13	=13	=13	=13	=13	=13	=13	=13	=13	=13	=13	=13	=13	=13	=13	=13	=13	=13	=13	=13	=13	=13
!	!	!LO:SIC:s=(8cL	!	!	!	!	!	!	!	!	!	!	!	!	!	!	!	!	!	!	!	!	!	!	!	!	!	!	!	!	!	!	!
4C\	.	8c\L	.	(8e/L	.	(16g#X\LL	.	16G#X\LL	no-	.	0.r	.	.	1.r	.	.	0.r	.	.	0.r	.	0.r	.	0.r	.	.	.	.	.	.	.	.	.
.	.	.	.	.	.	16a\	.	16A\JJ	.	.	.	.	.	.	.	.	.	.	.	.	.	.	.	.	.	.	.	.	.	.	.	.	.
!	!	!LO:SIC:s=8eJ)	!	!	!	!	!	!	!	!	!	!	!	!	!	!	!	!	!	!	!	!	!	!	!	!	!	!	!	!	!	!	!
.	.	8e\J	.	8c/J)	.	16b\	.	16B\LL	-bis	.	.	.	.	.	.	.	.	.	.	.	.	.	.	.	.	.	.	.	.	.	.	.	.
.	.	.	.	.	.	16cc\JJ)	.	16c\JJ	.	.	.	.	.	.	.	.	.	.	.	.	.	.	.	.	.	.	.	.	.	.	.	.	.
4D\	.	4d\	.	4B/	.	4gn/	.	4Gn\	Do-	.	.	.	.	.	.	.	.	.	.	.	.	.	.	.	.	.	.	.	.	.	.	.	.
4DD/	.	4d\	.	4A/	.	4f#/	.	4F#\	-mi-	.	.	.	.	.	.	.	.	.	.	.	.	.	.	.	.	.	.	.	.	.	.	.	.
=14	=14	=14	=14	=14	=14	=14	=14	=14	=14	=14	=14	=14	=14	=14	=14	=14	=14	=14	=14	=14	=14	=14	=14	=14	=14	=14	=14	=14	=14	=14	=14	=14	=14
!	!	!	!	!	!LO:MO:null:mod=!LO&colon;DY&colon;ed=brack	!	!	!	!	!	!	!	!	!	!	!	!	!	!	!	!	!	!	!	!	!	!	!	!	!	!	!	!
!	!	!	!	!	!	!	!	!	!	!	!	!	!	!	!	!	!	!	!	!	!	!	!	!	!	!	!	!	!	!	!	!	!
!LO:TX:a:t=1:mod=	!	!	!	!LO:SIC:s=(8BL	!LO:MO:null:mod=f	!LO:TX:t=P:problem:mixed beam	!LO:DY:b:t=for	!	!	!	!	!	!	!	!	!	!	!	!	!	!	!	!	!	!	!	!	!	!	!	!	!	!
2.r	.	4d\	.	8B/L	.	(8g\L	f	4G\	-ne	.	.	.	.	.	.	.	.	.	.	.	.	.	.	.	.	.	.	.	.	.	.	.	.
!	!	!	!	!LO:SIC:s=8e	!	!	!	!	!	!	!	!	!	!	!	!	!	!	!	!	!	!	!	!	!	!	!	!	!	!	!	!	!
.	.	.	.	(8e/	.	8cc\	.	.	.	.	.	.	.	.	.	.	.	.	.	.	.	.	.	.	.	.	.	.	.	.	.	.	.
.	.	4r	.	8d/)	.	8b\)	.	4r	.	.	.	.	.	.	.	.	.	.	.	.	.	.	.	.	.	.	.	.	.	.	.	.	.
.	.	.	.	8c|/	.	8ee|\	.	.	.	.	.	.	.	.	.	.	.	.	.	.	.	.	.	.	.	.	.	.	.	.	.	.	.
.	.	4r	.	8B|/	.	8dd|\	.	4r	.	.	.	.	.	.	.	.	.	.	.	.	.	.	.	.	.	.	.	.	.	.	.	.	.
.	.	.	.	8A|/J	.	8f#|/J	.	.	.	.	.	.	.	.	.	.	.	.	.	.	.	.	.	.	.	.	.	.	.	.	.	.	.
=15	=15	=15	=15	=15	=15	=15	=15	=15	=15	=15	=15	=15	=15	=15	=15	=15	=15	=15	=15	=15	=15	=15	=15	=15	=15	=15	=15	=15	=15	=15	=15	=15	=15
!	!	!	!	!	!LO:MO:null:mod=!LO&colon;DY&colon;ed=brack	!	!	!	!	!	!	!	!	!	!	!	!	!	!	!	!	!	!	!	!	!	!	!	!	!	!	!	!
!	!	!	!	!	!	!	!	!LO:TX:a:t=9:mod=	!	!	!	!	!	!	!	!	!	!	!	!	!	!	!	!	!	!	!	!	!	!	!	!	!
!	!	!	!	!	!LO:MO:null:mod=p	!	!LO:DY:b:t=pia	!	!	!	!	!	!	!LO:TX:b:i:t=dolce:mod=	!	!	!	!	!	!	!	!	!	!	!	!	!	!	!	!	!	!	!
2GG/	.	4G/	.	2B/	.	4dd\	p	0.r	.	.	.	.	.	4dd\	A-	.	.	.	.	.	.	.	.	.	.	0.r	.	0.r	.	0.r	.	0.r	.
.	.	4g\	.	.	.	4g/	.	.	.	.	.	.	.	4g\	-gnus	.	.	.	.	.	.	.	.	.	.	.	.	.	.	.	.	.	.
4D\	.	4c\	.	(16e/LL	.	(16cc\LL	.	.	.	.	.	.	.	16cc\LL	A-	.	.	.	.	.	.	.	.	.	.	.	.	.	.	.	.	.	.
.	.	.	.	16d/	.	16b\	.	.	.	.	.	.	.	16b\JJ	.	.	.	.	.	.	.	.	.	.	.	.	.	.	.	.	.	.	.
.	.	.	.	16c/)	.	16a\	.	.	.	.	.	.	.	16a\LL	-gnus	.	.	.	.	.	.	.	.	.	.	.	.	.	.	.	.	.	.
.	.	.	.	16B/JJ	.	16g\JJ)	.	.	.	.	.	.	.	16g\JJ	.	.	.	.	.	.	.	.	.	.	.	.	.	.	.	.	.	.	.
=16	=16	=16	=16	=16	=16	=16	=16	=16	=16	=16	=16	=16	=16	=16	=16	=16	=16	=16	=16	=16	=16	=16	=16	=16	=16	=16	=16	=16	=16	=16	=16	=16	=16
!	!	!	!	!LO:SIC:s=(4A	!	!	!	!	!	!	!	!	!	!	!	!	!	!	!	!	!	!	!	!	!	!	!	!	!	!	!	!	!
4D\	.	4d\	.	4A/	.	(4f#/	.	.	.	.	.	.	.	4f#\	De-	.	.	.	.	.	.	.	.	.	.	.	.	.	.	.	.	.	.
!	!	!	!	!LO:SIC:s=4B)	!	!	!	!	!	!	!	!	!	!	!	!	!	!	!	!	!	!	!	!	!	!	!	!	!	!	!	!	!
4G\	.	4d\	.	4B/	.	4g/)	.	.	.	.	.	.	.	4g\	-i	.	.	.	.	.	.	.	.	.	.	.	.	.	.	.	.	.	.
4r	.	8r	.	8r	.	8r	.	.	.	.	.	.	.	8r	.	.	.	.	.	.	.	.	.	.	.	.	.	.	.	.	.	.	.
.	.	8d\	.	8fn/	.	8g#X/	.	.	.	.	.	.	.	8g#X\	qui	.	.	.	.	.	.	.	.	.	.	.	.	.	.	.	.	.	.
!LO:LB:g=original	!	!	!	!LO:LB:g=original	!	!LO:LB:g=original	!	!	!	!	!	!	!	!	!	!	!	!	!	!	!	!	!	!	!	!	!	!	!	!	!	!	!
=17	=17	=17	=17	=17	=17	=17	=17	=17	=17	=17	=17	=17	=17	=17	=17	=17	=17	=17	=17	=17	=17	=17	=17	=17	=17	=17	=17	=17	=17	=17	=17	=17	=17
!LO:SIC:v:s=4C	!	!	!	!	!	!	!	!	!	!	!	!	!	!	!	!	!	!	!	!	!	!	!	!	!	!	!	!	!	!	!	!	!
4D\	.	4c\	.	(8e/L	.	(8a\L	.	.	.	.	0.r	.	.	8a\L	tol-	.	0.r	.	.	0.r	.	0.r	.	0.r	.	.	.	.	.	.	.	.	.
.	.	.	.	8g#X/	.	8b\	.	.	.	.	.	.	.	8b\J	.	.	.	.	.	.	.	.	.	.	.	.	.	.	.	.	.	.	.
!LO:SIC:v:s=4AA	!	!	!	!	!	!	!	!	!	!	!	!	!	!	!	!	!	!	!	!	!	!	!	!	!	!	!	!	!	!	!	!	!
4C/	.	4A/	.	8a/	.	8cc\	.	.	.	.	.	.	.	8cc\	-lis	.	.	.	.	.	.	.	.	.	.	.	.	.	.	.	.	.	.
.	.	.	.	8b/J)	.	8dd\J)	.	.	.	.	.	.	.	8dd\	pec-	.	.	.	.	.	.	.	.	.	.	.	.	.	.	.	.	.	.
!	!	!	!	!	!	!	!	!	!	!	!	!	!	!LO:SIC:s=16dd#\LL	!	!	!	!	!	!	!	!	!	!	!	!	!	!	!	!	!	!	!
4AA/	.	8c\L	.	8a/L	.	(16dd#X\LL	.	.	.	.	.	.	.	(16dd#X\LL	-ca-	.	.	.	.	.	.	.	.	.	.	.	.	.	.	.	.	.	.
!	!	!	!	!	!	!	!	!	!	!	!	!	!	!LO:SIC:s=16ee\JJ	!	!	!	!	!	!	!	!	!	!	!	!	!	!	!	!	!	!	!
.	.	.	.	.	.	16ee\	.	.	.	.	.	.	.	16ee\JJ)	.	.	.	.	.	.	.	.	.	.	.	.	.	.	.	.	.	.	.
.	.	8e\J	.	(16e/L	.	16cc\	.	.	.	.	.	.	.	16cc\LL	-ta	.	.	.	.	.	.	.	.	.	.	.	.	.	.	.	.	.	.
.	.	.	.	16c/JJ)	.	16a\JJ)	.	.	.	.	.	.	.	16a\JJ	.	.	.	.	.	.	.	.	.	.	.	.	.	.	.	.	.	.	.
=18	=18	=18	=18	=18	=18	=18	=18	=18	=18	=18	=18	=18	=18	=18	=18	=18	=18	=18	=18	=18	=18	=18	=18	=18	=18	=18	=18	=18	=18	=18	=18	=18	=18
4D\	.	4d\	.	4B/	.	4gn/	.	.	.	.	.	.	.	4gn\	mun-	.	.	.	.	.	.	.	.	.	.	.	.	.	.	.	.	.	.
4DD/	.	4A/	.	4A/	.	4f#/	.	.	.	.	.	.	.	4f#\	-di	.	.	.	.	.	.	.	.	.	.	.	.	.	.	.	.	.	.
4r	.	4D/	.	4r	.	4r	.	.	.	.	.	.	.	4r	.	.	.	.	.	.	.	.	.	.	.	.	.	.	.	.	.	.	.
=19	=19	=19	=19	=19	=19	=19	=19	=19	=19	=19	=19	=19	=19	=19	=19	=19	=19	=19	=19	=19	=19	=19	=19	=19	=19	=19	=19	=19	=19	=19	=19	=19	=19
!LO:TX:a:t=1:mod=	!	!LO:TX:a:t=1:mod=	!	!LO:TX:a:t=1:mod=	!	!	!	!	!	!	!	!	!	!	!	!	!	!	!	!	!	!	!	!	!	!	!	!	!	!	!	!	!
2.r	.	2.r	.	2.r	.	(4a'/	.	0.r	.	.	.	.	.	4a\	Ex-	.	.	.	.	.	.	.	.	.	.	0.r	.	0.r	.	0.r	.	0.r	.
.	.	.	.	.	.	4a'/	.	.	.	.	.	.	.	4a\	-au-	.	.	.	.	.	.	.	.	.	.	.	.	.	.	.	.	.	.
.	.	.	.	.	.	4a'/)	.	.	.	.	.	.	.	4a\	-di	.	.	.	.	.	.	.	.	.	.	.	.	.	.	.	.	.	.
!	!	!	!	!	!	!	!	!	!	!	!	!	!	!LO:LB:g=original	!	!	!	!	!	!	!	!	!	!	!	!	!	!	!	!	!	!	!
=20	=20	=20	=20	=20	=20	=20	=20	=20	=20	=20	=20	=20	=20	=20	=20	=20	=20	=20	=20	=20	=20	=20	=20	=20	=20	=20	=20	=20	=20	=20	=20	=20	=20
4AA/	.	2a\	.	8r	.	8r	.	.	.	.	.	.	.	4a\	ex-	.	.	.	.	.	.	.	.	.	.	.	.	.	.	.	.	.	.
.	.	.	.	8ee'\L	.	8gg|\L	.	.	.	.	.	.	.	.	.	.	.	.	.	.	.	.	.	.	.	.	.	.	.	.	.	.	.
4A\	.	.	.	8cc#X|\	.	8ee|\	.	.	.	.	.	.	.	4cc#X\	-au-	.	.	.	.	.	.	.	.	.	.	.	.	.	.	.	.	.	.
.	.	.	.	8ee|\	.	8gg|\	.	.	.	.	.	.	.	.	.	.	.	.	.	.	.	.	.	.	.	.	.	.	.	.	.	.	.
4D\	.	4a\	.	(8dd\	.	(8ff#\	.	.	.	.	.	.	.	4dd\	-di	.	.	.	.	.	.	.	.	.	.	.	.	.	.	.	.	.	.
.	.	.	.	8f#/J)	.	8dd\J)	.	.	.	.	.	.	.	.	.	.	.	.	.	.	.	.	.	.	.	.	.	.	.	.	.	.	.
=21	=21	=21	=21	=21	=21	=21	=21	=21	=21	=21	=21	=21	=21	=21	=21	=21	=21	=21	=21	=21	=21	=21	=21	=21	=21	=21	=21	=21	=21	=21	=21	=21	=21
!	!	!	!	!	!	!	!	!	!	!	!	!	!	!LO:SIC:s=4a	!LO:MO:mod=ex-	!	!	!	!	!	!	!	!	!	!	!	!	!	!	!	!	!	!
4AA/	.	4a\	.	8r	.	8r	.	.	.	.	1.r	.	.	(4a\	au-	.	1.r	.	.	1.r	.	1.r	.	1.r	.	.	.	.	.	.	.	.	.
.	.	.	.	8g|/L	.	8ee|\L	.	.	.	.	.	.	.	.	.	.	.	.	.	.	.	.	.	.	.	.	.	.	.	.	.	.	.
!	!	!	!	!	!	!	!	!	!	!	!	!	!	!LO:SIC:s=4g	!LO:MO:null:mod=-[au]-	!	!	!	!	!	!	!	!	!	!	!	!	!	!	!	!	!	!
4A\	.	4a\	.	8e|/	.	8cc#X|\	.	.	.	.	.	.	.	4g\)	.	.	.	.	.	.	.	.	.	.	.	.	.	.	.	.	.	.	.
.	.	.	.	8g|/	.	8ee|\	.	.	.	.	.	.	.	.	.	.	.	.	.	.	.	.	.	.	.	.	.	.	.	.	.	.	.
4D\	.	4a\	.	(8f#/	.	(8dd\	.	.	.	.	.	.	.	4f#\	-di	.	.	.	.	.	.	.	.	.	.	.	.	.	.	.	.	.	.
.	.	.	.	8dd\J)	.	8ff#\J)	.	.	.	.	.	.	.	.	.	.	.	.	.	.	.	.	.	.	.	.	.	.	.	.	.	.	.
=22	=22	=22	=22	=22	=22	=22	=22	=22	=22	=22	=22	=22	=22	=22	=22	=22	=22	=22	=22	=22	=22	=22	=22	=22	=22	=22	=22	=22	=22	=22	=22	=22	=22
8G\L	.	4b\	.	4g/	.	8b\L	.	.	.	.	.	.	.	8b\L	nos	.	.	.	.	.	.	.	.	.	.	.	.	.	.	.	.	.	.
8E\J	.	.	.	.	.	8ee\J	.	.	.	.	.	.	.	8ee\J	.	.	.	.	.	.	.	.	.	.	.	.	.	.	.	.	.	.	.
4A\	.	4a\	.	4f#/	.	4dd\	.	.	.	.	.	.	.	4dd\	Do-	.	.	.	.	.	.	.	.	.	.	.	.	.	.	.	.	.	.
4AA/	.	4a\	.	4e/	.	4cc#X\	.	.	.	.	.	.	.	4cc#X\	-mi-	.	.	.	.	.	.	.	.	.	.	.	.	.	.	.	.	.	.
=23	=23	=23	=23	=23	=23	=23	=23	=23	=23	=23	=23	=23	=23	=23	=23	=23	=23	=23	=23	=23	=23	=23	=23	=23	=23	=23	=23	=23	=23	=23	=23	=23	=23
!	!	!	!	!	!	!	!	!	!	!	!LO:MO:mod=*null:null	!	!	!	!	!	!	!	!	!	!	!	!	!	!	!	!	!	!	!	!	!	!
*	*	*	*	*	*	*	*	*	*	*	*k[f#c#]	*	*	*	*	*	*	*	*	*	*	*	*	*	*	*	*	*	*	*	*	*	*
*	*	*	*	*	*	*	*	*	*	*	*D:	*	*	*	*	*	*	*	*	*	*	*	*	*	*	*	*	*	*	*	*	*	*
8A\L	.	8a\L	.	4f#/	.	4dd\	.	2.r	.	.	2.r	.	.	4dd\	-ne	.	2.r	.	.	2.r	.	2.r	.	2.r	.	2.r	.	2.r	.	2.r	.	2.r	.
!	!	!	!LO:DY:b:t=forto	!	!	!	!	!	!	!	!	!	!	!	!	!	!	!	!	!	!	!	!	!	!	!	!	!	!	!	!	!	!
8B\	.	8b|\	f	.	.	.	.	.	.	.	.	.	.	.	.	.	.	.	.	.	.	.	.	.	.	.	.	.	.	.	.	.	.
8A\	.	8a|\	.	4r	.	4r	.	.	.	.	.	.	.	4r	.	.	.	.	.	.	.	.	.	.	.	.	.	.	.	.	.	.	.
8G\	.	8g|\	.	.	.	.	.	.	.	.	.	.	.	.	.	.	.	.	.	.	.	.	.	.	.	.	.	.	.	.	.	.	.
8F#\	.	8f#|\	.	4r	.	4r	.	.	.	.	.	.	.	4r	.	.	.	.	.	.	.	.	.	.	.	.	.	.	.	.	.	.	.
8E\J	.	8e|\J	.	.	.	.	.	.	.	.	.	.	.	.	.	.	.	.	.	.	.	.	.	.	.	.	.	.	.	.	.	.	.
!	!	!	!	!	!	!	!	!	!	!	!	!	!	!	!	!	!	!	!	!	!	!	!	!	!	!	!	!	!	!	!	!LO:LB:g=original	!
!LO:MO:mod==24||	!LO:MO:mod==24||	!LO:MO:mod==24||	!LO:MO:mod==24||	!LO:MO:mod==24||	!LO:MO:mod==24||	!LO:MO:mod==24||	!LO:MO:mod==24||	!LO:MO:mod==24||	!LO:MO:mod==24||	!LO:MO:mod==24||	!LO:MO:mod==24||	!LO:MO:mod==24||	!LO:MO:mod==24||	!LO:MO:mod==24||	!LO:MO:mod==24||	!LO:MO:mod==24||	!LO:MO:mod==24||	!LO:MO:mod==24||	!LO:MO:mod==24||	!LO:MO:mod==24||	!LO:MO:mod==24||	!LO:MO:mod==24||	!LO:MO:mod==24||	!LO:MO:mod==24||	!LO:MO:mod==24||	!LO:MO:mod==24||	!LO:MO:mod==24||	!LO:MO:mod==24||	!LO:MO:mod==24||	!LO:MO:mod==24||	!LO:MO:mod==24||	!LO:MO:mod==24||	!LO:MO:mod==24||
=24	=24	=24	=24	=24	=24	=24	=24	=24	=24	=24	=24	=24	=24	=24	=24	=24	=24	=24	=24	=24	=24	=24	=24	=24	=24	=24	=24	=24	=24	=24	=24	=24	=24
!LO:MO:null:mod=*k[f#c#]	!	!	!	!	!	!	!	!	!	!	!	!	!	!	!	!	!LO:MO:null:mod=*k[f#c#]	!	!	!	!	!	!	!	!	!	!	!LO:MO:null:mod=*k[f#c#]	!	!LO:MO:null:mod=*k[f#c#]	!	!LO:MO:null:mod=*k[f#c#]	!
*	*	*k[f#c#]	*	*k[f#c#]	*	*k[f#c#]	*	*k[f#c#]	*	*	*k[f#c#]	*	*	*k[f#c#]	*	*	*	*	*	*2\right	*	*	*	*	*	*	*	*	*	*	*	*	*
!	!	!	!	!	!	!	!LO:MO:null:mod=!LO&colon;DY&colon;ed=brack	!	!	!	!	!	!LO:MO:null:mod=!LO&colon;DY&colon;ed=brack	!	!	!	!	!	!LO:MO:null:mod=!LO&colon;DY&colon;ed=brack	!	!	!	!LO:MO:null:mod=!LO&colon;DY&colon;ed=brack	!	!	!	!	!	!	!	!	!	!
!	!	!	!	!	!	!	!	!	!	!	!	!	!	!	!	!	!	!	!	!	!	!	!	!	!	!	!	!	!	!	!	!	!
!	!	!	!	!	!LO:DY:b:t=forto	!	!LO:MO:null:mod=f	!	!	!LO:DY:a:t=forto	!	!	!LO:MO:null:mod=f	!	!	!LO:DY:b:t=forto	!	!	!LO:MO:null:mod=f	!	!LO:DY:b:t=fort	!	!LO:MO:null:mod=f	!	!LO:DY:b:t=forto	!	!	!	!LO:DY:b:t=forto	!	!LO:DY:b:t=for	!	!LO:DY:b:t=for
4D\	.	4d\	.	4d/ 4a 4ff#	f	4ddd\	.	4D\	A-	f	4d\	A-	.	4a\	A-	f	4ff#\	A-	.	2D\	f	4F#/	.	4d\	f	4f#/	f	4dd\	f	4f#/	f	4dd\	f
4DD/	.	4D/	.	4d/ 4a 4ff#	.	4aa\	.	4D\	-gnus	.	4d\	-gnus	.	4a\	-gnus	.	4ff#\	-gnus	.	.	.	4r	.	4r	.	4ff#\	.	4aa\	.	4ff#\	.	4aa\	.
!LO:SIC:v:s=8GGL	!	!	!	!	!	!	!	!	!	!	!	!	!	!	!	!	!	!	!	!	!	!	!	!	!	!	!	!	!	!LO:LB:g=original	!	!	!
8AA/L	.	8G/L	.	(16b\LL	.	(16gg\LL	.	8G\	A-	.	8B\	A-	.	16b\LL	A-	.	16gg\LL	A-	.	4r	.	4r	.	4r	.	(16b\LL	.	(16gg\LL	.	(16b/LL	.	(16gg\LL	.
.	.	.	.	16a\	.	16ff#\	.	.	.	.	.	.	.	16a\JJ	.	.	16ff#\JJ	.	.	.	.	.	.	.	.	16a\	.	16ff#\	.	16a/	.	16ff#\	.
!LO:SIC:v:s=8BBJ	!	!	!	!	!	!LO:SIC:s=16ee	!	!	!	!	!	!	!	!	!	!	!	!	!	!	!	!	!	!	!	!	!	!	!	!	!	!	!
8C/J	.	8B/J	.	16g\	.	16ee\)	.	8B\	-gnus	.	8B\	-gnus	.	16g\LL	-gnus	.	16ee\LL	-gnus	.	.	.	.	.	.	.	16g\	.	16ee\	.	16g/	.	16ee\	.
!	!	!	!	!	!	!LO:SIC:s=16ddJJ)	!	!	!	!	!	!	!	!	!	!	!	!	!	!	!	!	!	!	!	!	!	!	!	!	!	!	!
.	.	.	.	16f#\JJ)	.	16dd\JJ	.	.	.	.	.	.	.	16f#\JJ	.	.	16dd\JJ	.	.	.	.	.	.	.	.	16f#\JJ)	.	16dd\JJ)	.	16f#/JJ)	.	16dd\JJ)	.
!	!	!	!	!	!	!	!	!	!	!	!	!	!	!	!	!	!	!	!	!	!	!	!	!	!	!LO:LB:g=original	!	!LO:LB:g=original	!	!	!	!	!
=25	=25	=25	=25	=25	=25	=25	=25	=25	=25	=25	=25	=25	=25	=25	=25	=25	=25	=25	=25	=25	=25	=25	=25	=25	=25	=25	=25	=25	=25	=25	=25	=25	=25
!	!	!	!	!	!	!	!	!	!	!	!	!	!	!	!	!	!	!	!	!	!	!	!	!	!	!	!	!	!	!	!	!	!
4AA/	.	4A/	.	4e|/	.	(4cc#\	.	4A\	De-	.	4A\	De-	.	4e\	De-	.	4cc#\	De-	.	4AA/	.	4A/	.	4e\	.	4e/	.	4cc#\	.	4e/	.	4cc#\	.
4D\	.	4a\	.	4f#|/	.	8dd\L)	.	4D\	-i	.	4A\	-i	.	4f#\	-i	.	4dd\	-i	.	4D\	.	4F#/	.	4d\	.	4f#/	.	4dd\	.	4f#/	.	4dd\	.
.	.	.	.	.	.	8a|\	.	.	.	.	.	.	.	.	.	.	.	.	.	.	.	.	.	.	.	.	.	.	.	.	.	.	.
4d\	.	8r	.	8r	.	8dd|\	.	8r	.	.	8r	.	.	8r	.	.	8r	.	.	8r	.	8r	.	8r	.	8r	.	8r	.	8r	.	8r	.
.	.	8a\	.	8a|/	.	8ff#|\J	.	8d\	qui	.	8d\	qui	.	8a\	qui	.	8ff#\	qui	.	8D\	.	8F#/	.	8d\	.	8a\	.	8ff#\	.	8a/	.	8ff#\	.
!LO:LB:g=original	!	!	!	!	!	!	!	!	!	!	!	!	!	!	!	!	!	!	!	!	!	!	!	!	!	!	!	!	!	!	!	!	!
=26	=26	=26	=26	=26	=26	=26	=26	=26	=26	=26	=26	=26	=26	=26	=26	=26	=26	=26	=26	=26	=26	=26	=26	=26	=26	=26	=26	=26	=26	=26	=26	=26	=26
.	.	.	.	.	.	16qqff#/	.	.	.	.	.	.	.	.	.	.	.	.	.	.	.	.	.	.	.	.	.	.	.	.	.	.	.
4AA/	.	4a\	.	4g|/	.	(4ee\	.	4A\	tol-	.	4c#\	tol-	.	4g\	tol-	.	4ee\	tol-	.	4AA/	.	4A/	.	4e\	.	4g\	.	4ee\	.	4g/	.	4ee\	.
4D\	.	4a\	.	4f#|/	.	8dd\L)	.	4D\	-lis	.	4d\	-lis	.	4f#\	-lis	.	4dd\	-lis	.	4D\	.	4d\	.	4f#\	.	4f#\	.	4dd\	.	4f#/	.	4dd\	.
.	.	.	.	.	.	8a|\	.	.	.	.	.	.	.	.	.	.	.	.	.	.	.	.	.	.	.	.	.	.	.	.	.	.	.
4d\	.	8r	.	8r	.	8dd|\	.	8r	.	.	8r	.	.	8r	.	.	8r	.	.	8r	.	8r	.	8r	.	8r	.	8r	.	8r	.	8r	.
!	!	!	!	!	!	!	!	!	!	!	!	!	!	!	!	!	!	!	!	!	!	!	!	!	!	!	!	!	!	!	!LO:MO:null:mod=.	!	!
.	.	8a\	.	8dd\	.	8ff#|\J	.	8d\	pec-	.	8d\	pec-	.	8a\	pec-	.	8ff#\	pec-	.	8D\	.	8d\	.	8f#\	.	8dd\	.	8ff#\	.	8dd\	p	8ff#\	.
!	!	!LO:LB:g=original	!	!LO:LB:g=original	!	!LO:LB:g=original	!	!LO:LB:g=original	!	!	!	!	!	!	!	!	!	!	!	!	!	!	!	!	!	!	!	!	!	!	!	!	!
=27	=27	=27	=27	=27	=27	=27	=27	=27	=27	=27	=27	=27	=27	=27	=27	=27	=27	=27	=27	=27	=27	=27	=27	=27	=27	=27	=27	=27	=27	=27	=27	=27	=27
!	!	!	!	!	!	!	!	!	!	!	!	!	!	!	!	!	!	!	!	!	!	!	!	!	!	!	!	!	!	!LO:TX:t=P:problem:brak taktu	!	!	!
!	!	!	!	!	!	!	!	!	!	!	!	!	!	!	!	!	!	!	!	!	!	!	!	!	!	!	!	!	!	!LO:MO:mod=4ee@	!	!	!
4A\	.	4a\	.	4a\ 4ee	.	4gg\	.	4c#\	-ca-	.	4e\	-ca-	.	4a\	-ca-	.	4gg\	-ca-	.	4AA/	.	4A/	.	4e\	.	4cc#\	.	4gg\	.	2.ryyyy	.	4gg\	.
!	!	!	!	!	!	!	!	!	!	!	!	!	!	!	!	!	!	!	!	!	!	!	!	!	!	!	!	!	!	!LO:MO:null:mod=4dd@	!	!	!
4D\	.	4a\	.	4dd\	.	4ff#\	.	4d\	-ta	.	4d\	-ta	.	4a\	-ta	.	4ff#\	-ta	.	4D\	.	4F#/	.	4d\	.	4dd\	.	4ff#\	.	.	.	4ff#\	.
!	!	!	!	!	!	!	!	!	!	!	!	!	!	!	!	!	!	!	!	!	!	!	!	!	!	!	!	!	!	!LO:MO:null:mod=8r@	!	!	!
4r	.	8a\L	.	8r	.	8r	.	4r	.	.	4r	.	.	4r	.	.	4r	.	.	4r	.	4r	.	4r	.	8r	.	8r	.	.	.	8r	.
!	!	!	!LO:MO:null:mod=p	!	!LO:DY:b:t=pia	!	!LO:MO:null:mod=p	!	!	!	!	!	!	!	!	!	!	!	!	!	!	!	!	!	!	!	!LO:DY:b:t=piano	!	!LO:DY:b:t=piano	!LO:MO:null:mod=8cc@	!LO:MO:null:mod=p	!	!LO:DY:b:t=p&colon;
.	.	8f#|\J	.	8ccn\	p	8dd#X\	.	.	.	.	.	.	.	.	.	.	.	.	.	.	.	.	.	.	.	8ccX\	p	8dd#X\	p	.	.	8dd#X\	p
!	!	!	!	!	!	!	!	!	!	!	!	!	!	!LO:LB:g=original	!	!	!	!	!	!	!	!	!	!	!	!	!	!	!	!	!	!	!
=28	=28	=28	=28	=28	=28	=28	=28	=28	=28	=28	=28	=28	=28	=28	=28	=28	=28	=28	=28	=28	=28	=28	=28	=28	=28	=28	=28	=28	=28	=28	=28	=28	=28
!	!	!	!	!	!	!	!	!	!	!LO:DY:a:t=pia	!	!	!LO:DY:a:t=piano	!	!	!	!	!	!LO:DY:a:t=piano	!LO:TX:a:t=3:mod=	!	!LO:TX:a:t=3:mod=	!	!LO:TX:a:t=3:mod=	!	!	!	!	!	!	!	!	!
!	!	!	!LO:DY:b:t=piano	!	!	!	!LO:DY:b:t=piano	!	!	!	!	!	!	!	!	!LO:DY:a:t=piano	!	!	!	!	!	!	!	!	!	!	!	!	!	!	!	!	!
!	!	!	!LO:MO:null:mod=.	!	!	!	!LO:MO:null:mod=.	!	!	!	!	!	!	!	!	!	!	!	!	!	!	!	!	!	!	!	!	!	!	!	!	!	!
8G\L	.	8g|\L	p	8b|\L	.	8ee\	p	4G\	qui	p	4B\	qui	p	4g\	qui	p	4.ee\	qui	p	1.r	.	1.r	.	1.r	.	4b\	.	8ee\	.	4b\	.	8ee\	.
8G\	.	8g|\	.	8b|\	.	4ee\	.	.	.	.	.	.	.	.	.	.	.	.	.	.	.	.	.	.	.	.	.	4ee\	.	.	.	4ee\	.
8A\	.	8a|\	.	8ccn|\	.	.	.	4F#\	tol-	.	4cn\	tol-	.	4a\	tol-	.	.	.	.	.	.	.	.	.	.	4ccX\	.	.	.	4ccn\	.	.	.
.	.	.	.	.	.	16qqee/	.	.	.	.	.	.	.	.	.	.	.	.	.	.	.	.	.	.	.	.	.	.	.	.	.	.	.
!	!	!	!	!	!	!LO:TUP:a:problem:klamra łukowa	!	!	!	!	!	!	!	!	!	!	!	!	!	!	!	!	!	!	!	!	!	!LO:TUP:a:problem:klamra łukowa	!	!	!	!LO:TUP:a:problem:klamra łukowa	!
8A\	.	8a|\	.	8cc|\	.	24dd#X\LL	.	.	.	.	.	.	.	.	.	.	8dd#X\	tol-	.	.	.	.	.	.	.	.	.	24dd#X\LL	.	.	.	24dd#X\LL	.
.	.	.	.	.	.	24cc#\	.	.	.	.	.	.	.	.	.	.	.	.	.	.	.	.	.	.	.	.	.	24cc#\	.	.	.	24cc#\	.
.	.	.	.	.	.	24dd#\JJ	.	.	.	.	.	.	.	.	.	.	.	.	.	.	.	.	.	.	.	.	.	24dd#\JJ	.	.	.	24dd#\JJ	.
8G\	.	8g|\	.	8b|\	.	8ee|\L	.	8G\	-lis	.	8B\	-lis	.	8g\	-lis	.	8ee\	-lis	.	.	.	.	.	.	.	4b\	.	8ee\L	.	4b\	.	8ee\L	.
8G\J	.	8g|\J	.	8b|\J	.	8ff#|\J	.	8D#X\	pec-	.	8B\	pec-	.	8g\	pec-	.	8ff#\	pec-	.	.	.	.	.	.	.	.	.	8ff#'\J	.	.	.	8ff#\J	.
!	!	!	!	!	!	!	!	!	!	!	!	!	!	!	!	!	!LO:LB:g=original	!	!	!	!	!	!	!	!	!	!	!	!	!	!	!	!
=29	=29	=29	=29	=29	=29	=29	=29	=29	=29	=29	=29	=29	=29	=29	=29	=29	=29	=29	=29	=29	=29	=29	=29	=29	=29	=29	=29	=29	=29	=29	=29	=29	=29
*	*	*	*	*	*	*	*	*	*	*	*	*	*	*2\right	*	*	*	*	*	*	*	*	*	*	*	*	*	*	*	*	*	*	*
8E\L	.	8e|\L	.	8b\	.	8gg\	.	(4E\	-ca-	.	(4e\	-ca-	.	2b\	-ca-	.	(4.gg\	-ca-	.	.	.	.	.	.	.	2b\	.	8gg\	.	2b\	.	8gg\	.
8E\	.	8e|\	.	4b\	.	4gg\	.	.	.	.	.	.	.	.	.	.	.	.	.	.	.	.	.	.	.	.	.	4gg\	.	.	.	4gg\	.
8D#X\	.	8d#X|\	.	.	.	.	.	4D#X\)	.	.	4d#X\)	.	.	.	.	.	.	.	.	.	.	.	.	.	.	.	.	.	.	.	.	.	.
!	!	!	!	!	!	!LO:TUP:a:problem:klamra łukowa	!	!	!	!	!	!	!	!	!	!	!	!	!	!	!	!	!	!	!	!	!	!LO:TUP:a:problem:klamra łukowa	!	!	!	!LO:TUP:a:problem:klamra łukowa	!
.	.	.	.	.	.	16qqgg/	.	.	.	.	.	.	.	.	.	.	.	.	.	.	.	.	.	.	.	.	.	.	.	.	.	.	.
8D#\	.	8d#|\	.	8b\	.	24ff#\LL	.	.	.	.	.	.	.	.	.	.	8ff#\)	.	.	.	.	.	.	.	.	.	.	24ff#\LL	.	.	.	24ff#\LL	.
.	.	.	.	.	.	24ee\	.	.	.	.	.	.	.	.	.	.	.	.	.	.	.	.	.	.	.	.	.	24ee\	.	.	.	24ee\	.
.	.	.	.	.	.	24ff#\JJ	.	.	.	.	.	.	.	.	.	.	.	.	.	.	.	.	.	.	.	.	.	24ff#\JJ	.	.	.	24ff#\JJ	.
!	!	!	!	!	!	!	!	!	!	!	!LO:LB:g=original	!	!	!	!	!	!	!	!	!	!	!	!	!	!	!	!	!	!	!	!	!	!
8E\	.	8e|\	.	8b\L	.	8gg|\L	.	4E\	-ta	.	4e\	-ta	.	4b\	-ta	.	8gg\L	-ta	.	.	.	.	.	.	.	8b\L	.	8gg\L	.	8b\L	.	8gg\L	.
!	!	!	!	!	!LO:DY:b:t=forto	!	!	!	!	!	!	!	!	!	!	!	!	!	!	!	!	!	!	!	!	!	!	!	!	!	!	!	!
!	!	!	!	!	!LO:MO:null:mod=.	!	!	!	!	!	!	!	!	!	!	!	!	!	!	!	!	!	!	!	!	!	!	!	!	!	!	!	!
8E\J	.	8e|\J	.	8ff#\J	f	8aa|\J	.	.	.	.	.	.	.	.	.	.	8aa\J	.	.	.	.	.	.	.	.	8ff#\J	.	8aa\J	.	8ff#\J	.	8aa\J	.
=30	=30	=30	=30	=30	=30	=30	=30	=30	=30	=30	=30	=30	=30	=30	=30	=30	=30	=30	=30	=30	=30	=30	=30	=30	=30	=30	=30	=30	=30	=30	=30	=30	=30
!	!	!	!	!	!	!	!LO:DY:b:t=forto	!LO:TX:a:t=1:mod=	!	!	!LO:TX:a:t=1:mod=	!	!	!	!	!	!	!	!LO:DY:a:t=fort	!	!	!	!	!	!	!	!LO:DY:b:t=forto	!	!LO:DY:b:t=forto	!	!LO:DY:b:t=for	!	!LO:DY:b:t=for
!	!	!	!	!	!LO:MO:null:mod=f	!	!	!	!	!	!	!	!	!	!	!	!	!	!LO:MO:null:mod=.	!	!	!	!	!	!	!	!	!	!	!	!	!	!
4AA\ 4A	.	4e\	.	8.gg\L	.	8.bb\L	f	2.r	.	.	2.r	.	.	4r	.	.	4r	.	f	2.r	.	2.r	.	2.r	.	8.gg\L	f	8.bb\L	f	8.gg\L	f	8.bb\L	f
.	.	.	.	16ff#\Jk	.	16aa\Jk	.	.	.	.	.	.	.	.	.	.	.	.	.	.	.	.	.	.	.	16ff#\Jk	.	16aa\Jk	.	16ff#\Jk	.	16aa\Jk	.
!	!	!	!	!	!	!	!	!	!	!	!	!	!	!	!	!	!	!	!	!	!	!	!	!	!	!LO:SIC:s=(8bL	!	!	!	!LO:SIC:s=(8bL	!	!	!
4r	.	4r	.	(8b/L	.	(16gg\LL	.	.	.	.	.	.	.	8r	.	.	8r	.	.	.	.	.	.	.	.	8b\L	.	(8gg\L	.	8b/L	.	(8gg\L	.
.	.	.	.	.	.	16aa\)	.	.	.	.	.	.	.	.	.	.	.	.	.	.	.	.	.	.	.	.	.	.	.	.	.	.	.
!	!	!	!	!	!	!	!	!	!	!	!	!	!	!	!	!LO:DY:b:t=forto	!	!	!LO:MO:null:mod=f	!	!	!	!	!	!	!	!	!	!	!	!	!	!
.	.	.	.	8a/	.	(16ff#\	.	.	.	.	.	.	.	8a\	pec-	f	8ff#\	pec-	.	.	.	.	.	.	.	8a\	.	8ff#\	.	8a/	.	8ff#\	.
.	.	.	.	.	.	16gg\JJ)	.	.	.	.	.	.	.	.	.	.	.	.	.	.	.	.	.	.	.	.	.	.	.	.	.	.	.
!	!	!	!LO:DY:b:t=forto	!	!	!	!	!	!	!	!	!	!	!	!	!	!	!	!	!	!	!	!	!	!	!	!	!	!	!	!	!	!
4r	.	4b\	f	8g/	.	(16ee\LL	.	.	.	.	.	.	.	8g\	-ca-	.	8ee\	-ca-	.	.	.	.	.	.	.	8g\	.	8ee\	.	8g/	.	8ee\	.
.	.	.	.	.	.	16ff#\)	.	.	.	.	.	.	.	.	.	.	.	.	.	.	.	.	.	.	.	.	.	.	.	.	.	.	.
!	!	!	!	!	!	!	!	!	!	!	!	!	!	!	!	!	!	!	!	!	!	!	!	!	!	!LO:SIC:s=8f#J)	!	!	!	!LO:SIC:s=8f#J)	!	!	!
.	.	.	.	8f#/J)	.	(16dd\	.	.	.	.	.	.	.	8f#\	-ta	.	8dd\	-ta	.	.	.	.	.	.	.	8f#\J	.	8dd\J)	.	8f#/J	.	8dd\J)	.
.	.	.	.	.	.	16ee\JJ)	.	.	.	.	.	.	.	.	.	.	.	.	.	.	.	.	.	.	.	.	.	.	.	.	.	.	.
=31	=31	=31	=31	=31	=31	=31	=31	=31	=31	=31	=31	=31	=31	=31	=31	=31	=31	=31	=31	=31	=31	=31	=31	=31	=31	=31	=31	=31	=31	=31	=31	=31	=31
!	!	!	!	!	!	!	!	!	!	!LO:DY:a:t=forto	!	!	!LO:DY:a:t=forto	!	!	!	!	!	!	!	!	!	!	!	!	!	!	!	!	!	!	!	!
4A\	.	4a\	.	(4f#/	.	(4dd\	.	4A\	mun-	f	4A\	mun-	f	4f#\	mun-	.	4dd\	mun-	.	4r	.	4r	.	4r	.	4f#/	.	4dd\	.	4f#/	.	4dd\	.
4AA/	.	4a\	.	8e/L)	.	4cc#\)	.	4A\	-di	.	4A\	-di	.	4e\	-di	.	4cc#\	-di	.	8r	.	8r	.	8r	.	4e/	.	4cc#\	.	4e/	.	4cc#\	.
.	.	.	.	8a|/	.	.	.	.	.	.	.	.	.	.	.	.	.	.	.	8AA/L	.	8A/L	.	8A/L	.	.	.	.	.	.	.	.	.
4r	.	4r	.	8a|/	.	4r	.	8A\	A-	.	8A\	A-	.	8a\	A-	.	8a\	A-	.	8AA/	.	8A/	.	8A/	.	4r	.	4r	.	4r	.	4r	.
.	.	.	.	8a|/J	.	.	.	8A\	-gnus	.	8A\	-gnus	.	8a\	-gnus	.	8a\	-gnus	.	8AA/J	.	8A/J	.	8A/J	.	.	.	.	.	.	.	.	.
!	!	!	!	!	!	!	!	!	!	!	!	!	!	!	!	!	!	!	!	!	!	!	!	!	!	!	!	!	!	!	!	!LO:LB:g=original	!
=32	=32	=32	=32	=32	=32	=32	=32	=32	=32	=32	=32	=32	=32	=32	=32	=32	=32	=32	=32	=32	=32	=32	=32	=32	=32	=32	=32	=32	=32	=32	=32	=32	=32
2AA/	.	4r	.	8a/	.	8r	.	4A\	De-	.	4A\	De-	.	4a\	De-	.	4a\	De-	.	2.AA/	.	4A/	.	4e\	.	4r	.	8r	.	4r	.	8r	.
.	.	.	.	4a/	.	8gg|\L	.	.	.	.	.	.	.	.	.	.	.	.	.	.	.	.	.	.	.	.	.	8gg'\L	.	.	.	8gg'\L	.
!	!	!	!	!	!	!LO:SIC:s=(8ff#	!	!	!	!	!	!	!	!	!	!	!	!	!	!	!	!	!	!	!	!	!	!	!	!	!	!	!
.	.	8r	.	.	.	(8ff#'\	.	4A\	-i	.	4A\	-i	.	4a\	-i	.	4a\	-i	.	.	.	4A/	.	4A/	.	8r	.	(8ff#\	.	8r	.	(8ff#\	.
!	!	!	!	!	!	!LO:SIC:s=8ee	!	!	!	!	!	!	!	!	!	!	!	!	!	!	!	!	!	!	!	!LO:SIC:s=8g'L	!	!	!	!LO:SIC:s=8g'L	!	!	!
.	.	8g|\L	.	4a/	.	8ee'\	.	.	.	.	.	.	.	.	.	.	.	.	.	.	.	.	.	.	.	8g|\L	.	8ee\	.	8g/L	.	8ee\	.
!	!	!	!	!	!	!LO:SIC:s=8dd	!	!	!	!	!	!	!	!	!	!	!	!	!	!	!	!	!	!	!	!LO:SIC:s=8f#'	!	!	!	!LO:SIC:s=8f#'	!	!	!
4A\	.	8f#|\	.	.	.	8dd'\	.	4A\	qui	.	4A\	qui	.	4a\	qui	.	4a\	qui	.	.	.	4A/	.	8A/L	.	8f#|\	.	8dd\	.	8f#/	.	8dd\	.
!	!	!	!	!	!	!LO:SIC:s=8cc#J)	!	!	!	!	!	!	!	!	!	!	!	!	!	!	!	!	!	!	!	!LO:SIC:s=8e'J	!	!	!	!LO:SIC:s=8e'J	!	!	!
.	.	8e|\J	.	8a/	.	8cc#'\J)	.	.	.	.	.	.	.	.	.	.	.	.	.	.	.	.	.	8e\J	.	8e|\J	.	8cc#\J)	.	8e/J	.	8cc#\J)	.
!	!	!	!	!	!	!	!	!	!	!	!	!	!	!	!	!	!	!	!	!LO:LB:g=original	!	!LO:LB:g=original	!	!	!	!	!	!LO:LB:g=original	!	!	!	!	!
=33	=33	=33	=33	=33	=33	=33	=33	=33	=33	=33	=33	=33	=33	=33	=33	=33	=33	=33	=33	=33	=33	=33	=33	=33	=33	=33	=33	=33	=33	=33	=33	=33	=33
*	*	*	*	*	*	*	*	*	*	*	*	*	*	*	*	*	*	*	*	*	*	*	*	*^	*	*	*	*	*	*	*	*	*
*2\right	*	*	*	*	*	*	*	*	*	*	*	*	*	*	*	*	*	*	*	*	*	*	*	*	*	*	*	*	*	*	*	*	*	*
!	!	!LO:SIC:s=8f#|L	!	!	!	!	!	!	!	!	!	!	!	!	!	!	!	!	!	!	!	!	!	!	!	!	!	!	!	!	!	!	!	!
2D\	.	8f#'\L	.	8a/	.	8dd|\L	.	4A\	tol-	.	4A\	tol-	.	4a\	tol-	.	4a\	tol-	.	4D\	.	4d\	.	4f#/	4d\	.	(8f#/L	.	(8dd\L	.	(8f#/L	.	(8dd\L	.
.	.	8c#|\	.	4a/	.	(8ee\	.	.	.	.	.	.	.	.	.	.	.	.	.	.	.	.	.	.	.	.	8c#/)	.	8ee\	.	8c#/)	.	8ee\	.
!	!	!	!	!	!	!	!	!	!	!	!	!	!	!	!	!	!	!	!	!	!	!	!	!	!	!	!LO:SIC:s=8d'	!	!	!	!	!	!	!
.	.	8d|\	.	.	.	8ff#\	.	4A\	-lis	.	4A\	-lis	.	4a\	-lis	.	4a\	-lis	.	4r	.	4r	.	4r	4ryy	.	8d|/	.	8ff#\)	.	8d'/	.	8ff#\)	.
!	!	!	!	!	!	!	!	!	!	!	!	!	!	!	!	!	!	!	!	!	!	!	!	!	!	!	!LO:SIC:s=8e'	!	!LO:SIC:s=8gg'	!	!	!	!	!
.	.	8e|\	.	4a/	.	8gg\	.	.	.	.	.	.	.	.	.	.	.	.	.	.	.	.	.	.	.	.	8e|/	.	8gg|\	.	8e'/	.	8gg'\	.
4d\	.	8f#|\	.	.	.	8aa\)	.	4A\	pec-	.	4A\	pec-	.	4a\	pec-	.	4a\	pec-	.	4r	.	4r	.	4r	4ryy	.	(8f#/	.	(8aa\	.	(8f#/	.	(8aa\	.
.	.	8d|\J	.	8a/	.	8ff#|\J	.	.	.	.	.	.	.	.	.	.	.	.	.	.	.	.	.	.	.	.	8d/J)	.	8ff#\J)	.	8d/J)	.	8ff#\J)	.
*	*	*	*	*	*	*	*	*	*	*	*	*	*	*	*	*	*	*	*	*	*	*	*	*v	*v	*	*	*	*	*	*	*	*	*
!	!	!	!	!	!	!	!	!	!	!	!	!	!	!	!	!	!	!	!	!	!	!	!	!	!	!	!LO:LB:g=original	!	!	!	!LO:LB:g=original	!	!
=34	=34	=34	=34	=34	=34	=34	=34	=34	=34	=34	=34	=34	=34	=34	=34	=34	=34	=34	=34	=34	=34	=34	=34	=34	=34	=34	=34	=34	=34	=34	=34	=34	=34
*	*	*	*	*	*	*	*	*2\right	*	*	*2\right	*	*	*	*	*	*2\right	*	*	*	*	*	*	*	*	*	*	*	*	*	*	*	*
2AA/	.	8g|\L	.	8a/	.	8ee|\L	.	2A\	-ca-	.	2A\	-ca-	.	2a\	-ca-	.	2a\	-ca-	.	2AA/	.	2A/	.	2A/	.	(8g\L	.	(8ee\L	.	(8g/L	.	(8ee\L	.
.	.	8f#|\	.	4a/	.	(8dd\	.	.	.	.	.	.	.	.	.	.	.	.	.	.	.	.	.	.	.	8f#\	.	8dd\	.	8f#/	.	8dd\	.
!	!	!	!	!	!	!	!	!	!	!	!	!	!	!	!	!	!	!	!	!	!	!	!	!	!	!	!	!LO:SIC:s=8cc#)	!	!	!	!	!
.	.	8e|\	.	.	.	8cc#\	.	.	.	.	.	.	.	.	.	.	.	.	.	.	.	.	.	.	.	8e\	.	8cc#\	.	8e/	.	8cc#\)	.
!	!	!	!	!	!	!	!	!	!	!	!	!	!	!	!	!	!	!	!	!	!	!	!	!	!	!LO:SIC:s=8f#)J	!	!LO:SIC:s=8dd'	!	!	!	!	!
.	.	8f#|\	.	8a|/L	.	8dd\)	.	.	.	.	.	.	.	.	.	.	.	.	.	.	.	.	.	.	.	8f#\)	.	8dd|\)	.	8f#/J)	.	8dd'\	.
!	!	!	!	!	!	!	!	!	!	!	!	!	!	!	!	!	!	!	!	!	!	!	!	!	!	!LO:SIC:s=8ee'L	!	!	!	!	!	!	!
4D\	.	8a|\	.	8ee|\	.	8gg|\	.	8C#/L	-ta	.	8e\L	-ta	.	4a\	-ta	.	8gg\L	-ta	.	8AA/L	.	8A/L	.	8e\L	.	8ee|\	.	(8gg\	.	8ee'\L	.	(8gg\	.
!	!	!	!	!	!	!	!	!	!	!	!	!	!	!	!	!	!	!	!	!	!	!	!	!	!	!LO:SIC:s=8dd'J	!	!	!	!	!	!	!
.	.	8a|\J	.	8dd|\J	.	8ff#|\J	.	8D/J	.	.	8d\J	.	.	.	.	.	8ff#\J	.	.	8D/J	.	8d\J	.	8f#\J	.	8dd|\J	.	8ff#\J)	.	8dd'\J	.	8ff#\J)	.
!LO:LB:g=original	!	!	!	!	!	!	!	!LO:LB:g=original	!	!	!	!	!	!	!	!	!	!	!	!	!	!	!	!	!	!	!	!	!	!	!	!	!
=35	=35	=35	=35	=35	=35	=35	=35	=35	=35	=35	=35	=35	=35	=35	=35	=35	=35	=35	=35	=35	=35	=35	=35	=35	=35	=35	=35	=35	=35	=35	=35	=35	=35
!	!	!	!	!	!	!	!	!	!	!	!	!	!	!	!	!	!	!	!	!	!	!	!	!	!	!	!	!	!	!	!	!LO:SIC:s=(8eeL	!
4AA/	.	4a\	.	8cc#|\L	.	8ee|\L	.	4A\	mun-	.	4c#\	mun-	.	4a\	mun-	.	4ee\	mun-	.	4AA/	.	4A/	.	4e\	.	4dd\	.	(8ee\L	.	4dd\	.	8ee\L	.
!	!	!	!	!	!	!	!	!	!	!	!	!	!	!	!	!	!	!	!	!	!	!	!	!	!	!	!	!	!	!	!	!LO:SIC:s=8aaJ)	!
.	.	.	.	8cc#|\J	.	8aa|\J	.	.	.	.	.	.	.	.	.	.	.	.	.	.	.	.	.	.	.	.	.	8aa\J)	.	.	.	8aa\J	.
!	!	!	!	!	!	!	!	!	!	!	!	!	!	!	!	!	!	!	!	!	!LO:DY:b:t=piano	!	!	!	!	!	!	!	!	!	!	!	!
!	!	!	!	!	!	!	!	!	!	!	!	!	!	!	!	!	!	!	!	!	!LO:MO:null:mod=.	!	!	!	!	!	!	!	!	!	!	!	!
4A\	.	4a\	.	8cc#\L	.	4a/	.	4AA/	-di	.	4c#\	-di	.	4a\	-di	.	4a\	-di	.	8r	p	8r	.	8r	.	4cc#\	.	4a\	.	4cc#\	.	4a/	.
!	!	!	!	!	!LO:DY:b:t=piano	!	!	!	!	!	!	!	!	!	!	!	!	!	!	!	!LO:MO:null:mod=p	!	!LO:DY:b:t=pia	!	!LO:DY:b:t=piano	!	!	!	!	!	!	!	!
.	.	.	.	8a'\	p	.	.	.	.	.	.	.	.	.	.	.	.	.	.	8AA/L	.	8A/L	p	8A/L	p	.	.	.	.	.	.	.	.
!	!	!	!	!	!	!	!	!	!	!	!	!	!	!	!	!LO:MO:null:mod=!LO&colon;DY&colon;ed=brack	!	!	!	!	!	!	!	!	!	!	!	!	!	!	!	!	!
!	!	!	!	!	!	!	!	!	!	!	!	!	!	!	!	!	!	!	!	!	!	!	!	!	!	!	!	!	!	!	!	!	!
!	!	!	!	!	!	!	!	!	!	!LO:DY:a:t=piano	!	!	!LO:DY:a:t=pia	!	!	!LO:MO:null:mod=p	!	!	!LO:DY:a:t=pia	!	!	!	!	!	!	!	!	!	!	!	!	!	!
4r	.	4r	.	8a'\	.	4r	.	8A\	A-	p	8A\	A-	p	8a\	A-	.	8a\	A-	p	8AA/	.	8A/	.	8A/	.	4r	.	4r	.	4r	.	4r	.
.	.	.	.	8a'\J	.	.	.	8A\	-gnus	.	8A\	-gnus	.	8a\	-gnus	.	8a\	-gnus	.	8AA/J	.	8A/J	.	8A/J	.	.	.	.	.	.	.	.	.
!	!	!	!	!LO:LB:g=original	!	!LO:LB:g=original	!	!	!	!	!	!	!	!LO:LB:g=original	!	!	!	!	!	!	!	!	!	!	!	!	!	!	!	!	!	!	!
=36	=36	=36	=36	=36	=36	=36	=36	=36	=36	=36	=36	=36	=36	=36	=36	=36	=36	=36	=36	=36	=36	=36	=36	=36	=36	=36	=36	=36	=36	=36	=36	=36	=36
*	*	*	*	*	*	*	*	*	*	*	*	*	*	*	*	*	*	*	*	*	*	*	*	*^	*	*	*	*	*	*	*	*	*
2AA/	.	4r	.	8a/	.	8r	.	4A\	De-	.	4A\	De-	.	4a\	De-	.	4a\	De-	.	2.AA/	.	2.A/	.	2.A/	2.A\	.	4r	.	8r	.	4r	.	8r	.
!	!	!	!	!	!	!	!LO:DY:b:t=piano	!	!	!	!	!	!	!	!	!	!	!	!	!	!	!	!	!	!	!	!	!	!LO:SIC:s=8gg'L	!LO:DY:b:t=pia	!	!	!	!
.	.	.	.	4a/	.	8gg|\L	p	.	.	.	.	.	.	.	.	.	.	.	.	.	.	.	.	.	.	.	.	.	8gg|\L	p	.	.	8gg'\L	p
!	!	!	!LO:DY:b:t=pia	!	!	!	!	!	!	!	!	!	!	!	!	!	!	!	!	!	!	!	!	!	!	!	!	!LO:DY:b:t=pia	!	!	!	!	!	!
!	!	!	!	!	!	!	!	!	!	!	!	!	!	!	!	!	!	!	!	!	!	!	!	!	!	!	!	!LO:MO:null:mod=.	!	!	!	!LO:MO:null:mod=.	!	!
.	.	(8a\L	p	.	.	8ff#|\	.	4A\	-i	.	4A\	-i	.	4a\	-i	.	4a\	-i	.	.	.	.	.	.	.	.	8r	p	(8ff#\	.	8r	p	(8ff#\	.
!	!	!	!	!	!	!	!	!	!	!	!	!	!	!	!	!	!	!	!	!	!	!	!	!	!	!	!LO:SIC:s=8g'L	!LO:MO:null:mod=p	!	!	!	!LO:MO:null:mod=p	!	!
.	.	8g\)	.	4a/	.	8ee|\	.	.	.	.	.	.	.	.	.	.	.	.	.	.	.	.	.	.	.	.	8g|\L	.	8ee\	.	8g'/L	.	8ee\	.
!	!	!LO:SIC:s=8f#|	!	!	!	!	!	!	!	!	!	!	!	!	!	!	!LO:LB:g=original	!	!	!	!	!	!	!	!	!	!LO:SIC:s=8f#'	!	!	!	!	!	!	!
4A\	.	8f#'\	.	.	.	8dd|\	.	4A\	qui	.	4A\	qui	.	4a\	qui	.	4a\	qui	.	.	.	.	.	.	.	.	8f#|\	.	8dd\	.	8f#'/	.	8dd\	.
!	!	!LO:SIC:s=8e|J	!	!	!	!	!	!	!	!	!	!	!	!	!	!	!	!	!	!	!	!	!	!	!	!	!LO:SIC:s=8e'J	!	!	!	!	!	!	!
.	.	8e'\J	.	8a/	.	8cc#|\J	.	.	.	.	.	.	.	.	.	.	.	.	.	.	.	.	.	.	.	.	8e|\J	.	8cc#\J)	.	8e'/J	.	8cc#\J)	.
*	*	*	*	*	*	*	*	*	*	*	*	*	*	*	*	*	*	*	*	*	*	*	*	*v	*v	*	*	*	*	*	*	*	*	*
=37	=37	=37	=37	=37	=37	=37	=37	=37	=37	=37	=37	=37	=37	=37	=37	=37	=37	=37	=37	=37	=37	=37	=37	=37	=37	=37	=37	=37	=37	=37	=37	=37	=37
!	!	!LO:SIC:s=8f#\L|	!	!	!	!LO:SIC:s=8dd|L	!	!	!	!	!	!	!	!	!	!	!	!	!	!	!	!	!	!	!	!LO:SIC:s=8f#'L	!	!	!	!	!	!	!
2D\	.	8f#\L	.	8a/	.	(8dd|\L	.	4A\	tol-	.	4A\	tol-	.	4a\	tol-	.	4a\	tol-	.	4D\	.	4F#/	.	4d\	.	8f#|/L	.	(8dd\L	.	8f#'/L	.	(8dd\L	.
!	!	!LO:SIC:s=8c#\|	!	!	!	!LO:SIC:s=(8ee	!	!	!	!	!	!	!	!	!	!	!	!	!	!	!	!	!	!	!	!	!	!	!	!	!	!	!
.	.	8c#\	.	4a/	.	8ee\	.	.	.	.	.	.	.	.	.	.	.	.	.	.	.	.	.	.	.	(8c#/	.	8ee\)	.	(8c#/	.	8ee\)	.
!	!	!LO:SIC:s=8d\|	!	!	!	!	!	!	!	!	!	!	!	!	!	!	!	!	!	!	!	!	!	!	!	!	!	!LO:SIC:s=8ff#'	!	!	!	!	!
.	.	8d\	.	.	.	8ff#\	.	4A\	-lis	.	4A\	-lis	.	4a\	-lis	.	4a\	-lis	.	4r	.	4r	.	4r	.	8d/	.	8ff#|\	.	8d/	.	8ff#'\	.
!	!	!LO:SIC:s=8e\|	!	!	!	!	!	!	!	!	!	!	!	!	!	!	!	!	!	!	!	!	!	!	!	!	!	!LO:SIC:s=8gg'J	!	!	!	!	!
.	.	8e\	.	4a/	.	8gg\)	.	.	.	.	.	.	.	.	.	.	.	.	.	.	.	.	.	.	.	8e/	.	8gg|\J	.	8e/	.	8gg'\J	.
!	!	!LO:SIC:s=8f#\|	!	!	!	!	!	!	!	!	!	!	!	!	!	!	!	!	!	!	!	!	!	!	!	!	!	!	!	!	!	!	!
4d\	.	8f#\	.	.	.	8aa|\	.	8r	.	.	8r	.	.	8r	.	.	8r	.	.	4D\	.	4r	.	4r	.	8f#/)	.	4aa\	.	8f#/)	.	4aa\	.
!	!	!	!	!	!	!	!	!	!	!	!	!	!	!	!	!LO:MO:null:mod=!LO&colon;DY&colon;ed=brack	!	!	!	!	!	!	!	!	!	!	!	!	!	!	!	!	!
!	!	!	!	!	!	!	!LO:DY:b:t=forto	!	!	!	!	!	!	!	!	!	!	!	!	!	!	!	!	!	!	!	!	!	!	!	!	!	!
!	!	!LO:SIC:s=8d\J|	!	!	!	!LO:SIC:s=8ddd|J	!LO:MO:null:mod=.	!	!	!LO:DY:a:t=forto	!	!	!LO:DY:a:t=forto	!	!	!LO:MO:null:mod=f	!	!	!LO:DY:b:t=forto	!	!	!	!	!	!	!LO:SIC:v:s=8a'J	!	!	!	!LO:SIC:v:s=8a/J'	!	!	!
.	.	8d\J	.	8a/	.	8ddd'\J	f	8F#\	pec-	f	8d\	pec-	f	8a\	pec-	.	8ff#\	pec-	f	.	.	.	.	.	.	8b|/J	.	.	.	8b'/J	.	.	.
!	!	!	!	!	!	!	!	!	!	!	!LO:LB:g=original	!	!	!	!	!	!	!	!	!	!	!	!	!	!	!	!	!	!	!	!	!	!
=38	=38	=38	=38	=38	=38	=38	=38	=38	=38	=38	=38	=38	=38	=38	=38	=38	=38	=38	=38	=38	=38	=38	=38	=38	=38	=38	=38	=38	=38	=38	=38	=38	=38
!LO:N:vis=2	!	!	!LO:DY:b:t=fort	!	!LO:DY:b:t=forto	!	!LO:MO:null:mod=f	!	!	!	!	!	!	!	!	!	!	!	!	!LO:TX:a:t=2:mod=	!	!	!	!	!	!	!LO:DY:b:t=forto	!	!LO:DY:b:t=forto	!	!LO:DY:b:t=for	!	!LO:DY:b:t=for
8GG\L	.	8G/L	f	8dd\	f	(8ddd\L	.	4G\	-ca-	.	4d\	-ca-	.	4b\	-ca-	.	4gg\	-ca-	.	1.r	.	4r	.	4r	.	2dd\	f	2bb\	f	2dd\	f	2bb\	f
8G\	.	8g\J	.	4dd\	.	8bb\J)	.	.	.	.	.	.	.	.	.	.	.	.	.	.	.	.	.	.	.	.	.	.	.	.	.	.	.
*	*	*tremolo	*	*	*	*	*	*	*	*	*	*	*	*	*	*	*	*	*	*	*	*	*	*	*	*	*	*	*	*	*	*	*
!	!	!	!	!	!	!	!	!	!	!	!	!	!	!	!	!	!	!	!	!	!	!	!LO:DY:b:t=fort	!	!	!	!	!	!	!	!	!	!
!	!	!	!	!	!	!	!	!	!	!	!	!	!	!	!	!	!	!	!	!	!	!	!LO:MO:null:mod=.	!	!	!	!	!	!	!	!	!	!
8G\	.	8g\L	.	.	.	4bb\	.	4G\	-ta	.	4d\	-ta	.	4b\	-ta	.	4gg\	-ta	.	.	.	8r	f	8r	.	.	.	.	.	.	.	.	.
!	!	!	!	!	!	!	!	!	!	!	!	!	!	!	!	!	!	!	!	!	!	!LO:SIC:s=8DL	!LO:MO:null:mod=f	!	!LO:DY:b:t=forto	!	!	!	!	!	!	!	!
8G\	.	8g\	.	8dd\	.	.	.	.	.	.	.	.	.	.	.	.	.	.	.	.	.	8D|/L	.	8d\L	f	.	.	.	.	.	.	.	.
!	!	!	!	!	!	!	!	!	!	!	!	!	!	!	!	!	!	!	!	!	!	!LO:SIC:s=8D	!	!	!	!	!	!	!	!	!	!	!
8G\	.	8g\	.	(16ccn\LL	.	(16aa\LL	.	8r	.	.	8r	.	.	8r	.	.	8r	.	.	.	.	8D|/	.	8d\	.	(16ccX\LL	.	(16aa\LL	.	(16ccn\LL	.	(16aa\LL	.
.	.	.	.	16b\	.	16gg\	.	.	.	.	.	.	.	.	.	.	.	.	.	.	.	.	.	.	.	16b\	.	16gg\	.	16b\	.	16gg\	.
!	!	!	!	!	!	!	!	!	!	!	!	!	!	!	!	!	!	!	!	!	!	!LO:SIC:s=8DJ	!	!	!	!	!	!LO:SIC:s=16ff#	!	!	!	!	!
8G\J	.	8g\J	.	16a\	.	16ff#\	.	8G\	pec-	.	8d\	pec-	.	8b\	pec-	.	8gg\	pec-	.	.	.	8D|/J	.	8d\J	.	16a\	.	16ff#\)	.	16a\	.	16ff#\)	.
!	!	!	!	!	!	!	!	!	!	!	!	!	!	!	!	!	!	!	!	!	!	!	!	!	!	!	!	!LO:SIC:s=16ggJJ)	!	!	!	!	!
.	.	.	.	16b\JJ)	.	16gg\JJ)	.	.	.	.	.	.	.	.	.	.	.	.	.	.	.	.	.	.	.	16b\JJ)	.	16gg\JJ	.	16b\JJ)	.	16gg\JJ	.
*	*	*Xtremolo	*	*	*	*	*	*	*	*	*	*	*	*	*	*	*	*	*	*	*	*	*	*	*	*	*	*	*	*	*	*	*
=39	=39	=39	=39	=39	=39	=39	=39	=39	=39	=39	=39	=39	=39	=39	=39	=39	=39	=39	=39	=39	=39	=39	=39	=39	=39	=39	=39	=39	=39	=39	=39	=39	=39
!LO:N:vis=2	!	!	!	!	!	!	!	!	!	!	!	!	!	!	!	!	!	!	!	!	!	!	!	!	!	!	!	!	!	!	!	!	!
8D\L	.	2.f#\	.	8dd\	.	(8ddd\L	.	4d\	-ca-	.	4d\	-ca-	.	4a\	-ca-	.	4ff#\	-ca-	.	.	.	4r	.	4r	.	2dd\	.	2aa\	.	2dd\	.	2aa\	.
8d\	.	.	.	4dd\	.	8aa\J)	.	.	.	.	.	.	.	.	.	.	.	.	.	.	.	.	.	.	.	.	.	.	.	.	.	.	.
!	!	!	!	!	!	!LO:SIC:s=4aa	!	!	!	!	!	!	!	!	!	!	!	!	!	!	!	!	!	!	!	!	!	!	!	!	!	!	!
8d\	.	.	.	.	.	4aa|\	.	4D/	-ta	.	4d\	-ta	.	4a\	-ta	.	4ff#\	-ta	.	.	.	8r	.	8r	.	.	.	.	.	.	.	.	.
8d\	.	.	.	8dd\	.	.	.	.	.	.	.	.	.	.	.	.	.	.	.	.	.	8D/L	.	8d\L	.	.	.	.	.	.	.	.	.
8d\	.	.	.	(16b/LL	.	(16gg\LL	.	4r	.	.	4r	.	.	4r	.	.	4r	.	.	.	.	8D/	.	8d\	.	(16b\LL	.	(16gg\LL	.	(16b/LL	.	(16gg\LL	.
.	.	.	.	16a/	.	16ff#\	.	.	.	.	.	.	.	.	.	.	.	.	.	.	.	.	.	.	.	16a\	.	16ff#\	.	16a/	.	16ff#\	.
!	!	!	!	!	!	!	!	!	!	!	!	!	!	!	!	!	!	!	!	!	!	!	!	!	!	!	!	!LO:SIC:s=16ee	!	!LO:SIC:s=16g	!	!	!
8d\J	.	.	.	16g/)	.	16ee\	.	.	.	.	.	.	.	.	.	.	.	.	.	.	.	8D/J	.	8d\J	.	16g\	.	16ee\)	.	16g/)	.	16ee\	.
!	!	!	!	!	!	!	!	!	!	!	!	!	!	!	!	!	!	!	!	!	!	!	!	!	!	!	!	!LO:SIC:s=16ddJJ)	!	!LO:SIC:s=16f#JJ)	!	!	!
.	.	.	.	16f#/JJ	.	16dd\JJ)	.	.	.	.	.	.	.	.	.	.	.	.	.	.	.	.	.	.	.	16f#\JJ)	.	16dd\JJ	.	16f#/JJ	.	16dd\JJ)	.
!	!	!	!	!	!	!	!	!	!	!	!	!	!	!	!	!	!	!	!	!	!	!	!	!	!	!	!	!	!	!	!	!LO:LB:g=original	!
=40	=40	=40	=40	=40	=40	=40	=40	=40	=40	=40	=40	=40	=40	=40	=40	=40	=40	=40	=40	=40	=40	=40	=40	=40	=40	=40	=40	=40	=40	=40	=40	=40	=40
!	!	!	!	!LO:TX:t=P:problem:mixed beam	!	!	!	!	!	!	!	!	!	!	!	!	!	!	!	!	!	!	!	!	!	!	!	!	!	!	!	!	!
8G\L	6	8b\L	.	(16g/LL	.	(16ee\LL	.	4r	.	.	4r	.	.	4r	.	.	4r	.	.	4r	.	4r	.	4r	.	8g\L	.	8ee\L	.	8g/L	.	8ee\L	.
.	.	.	.	16gg\)	.	16bb\)	.	.	.	.	.	.	.	.	.	.	.	.	.	.	.	.	.	.	.	.	.	.	.	.	.	.	.
8E\J	.	8b\J	.	16ff#|\	.	16aa|\	.	.	.	.	.	.	.	.	.	.	.	.	.	.	.	.	.	.	.	8ee\J	.	8gg\J	.	8ee\J	.	8gg\J	.
.	.	.	.	16ee|\JJ	.	16gg|\JJ	.	.	.	.	.	.	.	.	.	.	.	.	.	.	.	.	.	.	.	.	.	.	.	.	.	.	.
4A\	6 4	4a\	.	4dd\	.	4ff#\	.	4A\	mun-	.	4d\	mun-	.	4a\	mun-	.	4ff#\	mun-	.	4AA/	.	4d\	.	4f#\	.	4dd\	.	4ff#\	.	4dd\	.	4ff#\	.
!	!	!	!	!	!	!	!	!	!	!	!	!	!	!	!	!	!	!	!	!	!	!	!	!	!	!	!	!LO:SIC:v:t=custos dd	!	!LO:SIC:v:s=4c#\	!	!	!
4AA/	5 3	4a\	.	4cc#X\	.	4ee\	.	4AA/	-di	.	4c#\	-di	.	4a\	-di	.	4ee\	-di	.	4AA/	.	4A/	.	4e\	.	4cc#\	.	4ee\	.	4ccn\	.	4ee\	.
!	!	!LO:LB:g=original	!	!	!	!	!	!	!	!	!	!	!	!	!	!	!	!	!	!	!	!	!	!	!	!	!	!LO:LB:g=original	!	!	!	!	!
=41	=41	=41	=41	=41	=41	=41	=41	=41	=41	=41	=41	=41	=41	=41	=41	=41	=41	=41	=41	=41	=41	=41	=41	=41	=41	=41	=41	=41	=41	=41	=41	=41	=41
2D\	.	4a\	.	4f#/	.	8dd|\L	.	8D\	mi-	.	8A\	mi-	.	8f#\	mi-	.	8dd\	mi-	.	4D\	.	4F#/	.	4d\	.	4f#/	.	(8dd\L	.	4f#/	.	(8dd\L	.
.	.	.	.	.	.	8a|\J	.	8D\	-se-	.	8d\	-se-	.	8f#\	-se-	.	8a\	-se-	.	.	.	.	.	.	.	.	.	8a\J)	.	.	.	8a\J)	.
.	.	4a\	.	4ee\	.	4gg\	.	4C#/	-re-	.	4e\	-re-	.	4a\	-re-	.	4gg\	-re-	.	4AA/	.	4A/	.	4e\	.	4ee\	.	4gg\	.	4ee\	.	4gg\	.
!	!	!	!	!	!	!	!	!	!	!	!	!	!	!	!	!	!	!	!	!	!	!	!	!	!	!	!	!LO:SIC:s=(8ff#L	!	!	!	!	!
4d\	.	8a\L	.	(8dd\L	.	(8ff#\L	.	8D\L	-re	.	8d\L	-re	.	4a\	-re	.	8ff#\L	-re-	.	8D\L	.	8d\L	.	8f#\L	.	(8dd\L	.	8ff#\L	.	(8dd\L	.	(8ff#\L	.
!	!	!	!	!	!	!	!	!	!	!	!	!	!	!	!	!	!	!	!	!	!	!	!	!	!	!	!	!LO:SIC:s=8ggJ)	!	!	!	!	!
.	.	8a\J	.	8ee\J)	.	8gg\J)	.	8F#\J	.	.	8e\J	.	.	.	.	.	8gg\J	.	.	8D\J	.	8e\J	.	8g\J	.	8ee\J)	.	8gg\J	.	8ee\J)	.	8gg\J)	.
=42	=42	=42	=42	=42	=42	=42	=42	=42	=42	=42	=42	=42	=42	=42	=42	=42	=42	=42	=42	=42	=42	=42	=42	=42	=42	=42	=42	=42	=42	=42	=42	=42	=42
!	!	!	!	!	!	!	!	!	!	!	!	!	!	!	!	!	!	!	!	!	!	!	!	!	!	!LO:SIC:s=(4dd	!	!	!	!LO:SIC:s=(4dd	!	!	!
4A\	.	4a\	.	4dd\	.	4ff#t\	.	4A\	no-	.	4d\	no-	.	4a\	no-	.	4ff#\	-no-	.	4AA/	.	4d\	.	4f#\	.	4dd\	.	(4ff#\	.	4dd\	.	(4ff#\	.
!	!	!	!	!	!	!	!	!	!	!	!	!	!	!	!	!	!	!	!	!	!	!	!	!	!	!LO:SIC:s=4cc#)	!	!	!	!LO:SIC:s=4cc#)	!	!	!
4AA/	.	4a\	.	4cc#\	.	4ee\	.	4AA/	-bis	.	4c#\	-bis	.	4a\	-bis	.	4ee\	-bis	.	4AA/	.	4A/	.	4e\	.	4cc#\	.	4ee\)	.	4cc#\	.	4ee\)	.
4r	.	4r	.	4r	.	4r	.	4r	.	.	4r	.	.	4r	.	.	4r	.	.	4r	.	4r	.	4r	.	4r	.	4r	.	4r	.	4r	.
==	==	==	==	==	==	==	==	==	==	==	==	==	==	==	==	==	==	==	==	==	==	==	==	==	==	==	==	==	==	==	==	==	==
*-	*-	*-	*-	*-	*-	*-	*-	*-	*-	*-	*-	*-	*-	*-	*-	*-	*-	*-	*-	*-	*-	*-	*-	*-	*-	*-	*-	*-	*-	*-	*-	*-	*-
!!!system-decoration: [(s1,s2,s3,s4)][(s5,s6)][(s7)][(s8,s9,s10,s11)][(s12,s13,s14)]s15
!!!RDF**kern: | = vertical stroke
!!!RDF**kern: > = above
!!!RDF**kern: < = below
!!!RDF**kern: @ = marked note, color=grey
!!!ENC: Andrzej Borzym
!!!END: 2020-10-20
!!!ENC: Natalia Wrzos
!!!END: 2022-06-27
!!!ENC-modern: Andrzej Borzym
!!!END-modern: 2022-08-30
!!!YEC: Copyright 2022 Narodowy Instytut Fryderyka Chopina (https://polishscores.org)
!!!YEM: License CC-BY-4.0 (https://creativecommons.org/licenses/by/4.0)
